!!!COM: Haydn, Franz Joseph 
!!!OPR: Symphony in D Major 
!!!OTL: Moderato molto 
!!!OMV: 4A 
!!!SCT: H I:31 
!!!SCA: Thematisch-bibliographisches Werkevererzeichnis (A. van Hoboken) 
!!!YOR: Breitkopf & Härtel Edition 
!!!EED: Frances Bennion 
!!!ENC: Frances Bennion 
!!!CDT: 1732/3/31/-1809/5/31/
!!!OCY: Österreich 
!!!YEC: Copyright (c) 1994, 2000 Center for Computer Assisted Research in the Humanities 
!!!YEM: Rights to all derivative editions reserved. 
!!!YEM: Refer to licensing agreement for further details. 
!!!YEN: United States of America 
**kern	**kern	**kern	**kern	**kern	**kern	**kern	**kern	**kern	**kern	**kern	**kern	**kern	**kern
*k[f#c#]	*k[f#c#]	*k[f#c#]	*k[f#c#]	*k[f#c#]	*k[f#c#]	*k[f#c#]	*k[f#c#]	*k[]	*k[]	*k[]	*k[]	*k[f#c#]	*k[f#c#]
*D:	*D:	*D:	*D:	*D:	*D:	*D:	*D:	*D:	*D:	*D:	*D:	*D:	*D:
*clefF	*clefF	*clefC3	*clefF4	*clefF4	*clefF4	*clefF	*clefF	*clefF	*clefF	*clefF	*clefF	*clefF	*clefF
*M2/4	*M2/4	*M2/4	*M2/4	*M2/4	*M2/4	*M2/4	*M2/4	*M2/4	*M2/4	*M2/4	*M2/4	*M2/4	*M2/4
*tb48	*tb48	*tb48	*tb48	*tb48	*tb48	*tb48	*tb48	*tb48	*tb48	*tb48	*tb48	*tb48	*tb48
=0-	=0-	=0-	=0-	=0-	=0-	=0-	=0-	=0-	=0-	=0-	=0-	=0-	=0-
4.r	4.r	4.r	4.r	4.r	4.r	4.r	4.r	4.r	4.r	4.r	4.r	4.r	4.r
8r	8a	8r	8r	8r	8r	8r	8r	8r	8r	8r	8r	8a	8a
=1	=1	=1	=1	=1	=1	=1	=1	=1	=1	=1	=1	=1	=1
2r	8dd	4d	4D	4D	4D	2r	2r	2r	2r	2r	2r	8dd	8dd
.	4dd	.	.	.	.	.	.	.	.	.	.	4dd	4dd
.	.	4f#	4F#	4F#	4F#	.	.	.	.	.	.	.	.
.	16.ff#	.	.	.	.	.	.	.	.	.	.	16.ff#	16.ff#
.	32dd	.	.	.	.	.	.	.	.	.	.	32dd	32dd
=2	=2	=2	=2	=2	=2	=2	=2	=2	=2	=2	=2	=2	=2
2r	8b	4g	4G	4G	4G	2r	2r	2r	2r	2r	2r	8b	8b
.	4b	.	.	.	.	.	.	.	.	.	.	4b	4b
.	.	4f#	4F#	4F#	4F#	.	.	.	.	.	.	.	.
.	8a	.	.	.	.	.	.	.	.	.	.	8a	8a
=3	=3	=3	=3	=3	=3	=3	=3	=3	=3	=3	=3	=3	=3
2r	8g	8e	8E	8E	8E	2r	2r	2r	2r	2r	2r	8g	8g
.	16f#	8c#	8C#	8C#	8C#	.	.	.	.	.	.	16f#	16f#
.	16e	.	.	.	.	.	.	.	.	.	.	16e	16e
.	8f#	8d	8D	8D	8D	.	.	.	.	.	.	8f#	8f#
.	16e	8B	8BB	8BB	8BB	.	.	.	.	.	.	16e	16e
.	16d	.	.	.	.	.	.	.	.	.	.	16d	16d
=4	=4	=4	=4	=4	=4	=4	=4	=4	=4	=4	=4	=4	=4
2r	8a	8A	8AA	8AA	8AA	2r	2r	2r	2r	2r	2r	8a	8a
.	16.a	8a	8A	8A	8A	.	.	.	.	.	.	16.a	16.a
.	32a	.	.	.	.	.	.	.	.	.	.	32a	32a
.	8a	8A	8AA	8AA	8AA	.	.	.	.	.	.	8a	8a
.	8a	8r	8r	8r	8r	.	.	.	.	.	.	8a	8a
=5	=5	=5	=5	=5	=5	=5	=5	=5	=5	=5	=5	=5	=5
2r	8dd	4dd	4d	4d	4d	2r	2r	2r	2r	2r	2r	8dd	8dd
.	4dd	.	.	.	.	.	.	.	.	.	.	4dd	4dd
.	.	4cc#	4c#	4c#	4c#	.	.	.	.	.	.	.	.
.	16.ff#	.	.	.	.	.	.	.	.	.	.	16.ff#	16.ff#
.	32ee	.	.	.	.	.	.	.	.	.	.	32ee	32ee
=6	=6	=6	=6	=6	=6	=6	=6	=6	=6	=6	=6	=6	=6
2r	8dd	4b	4B	4B	4B	2r	2r	2r	2r	2r	2r	8dd	8dd
.	4dd	.	.	.	.	.	.	.	.	.	.	4dd	4dd
.	.	8f#	8F#	8F#	8F#	.	.	.	.	.	.	.	.
.	16.ee	8g#	8G#	8G#	8G#	.	.	.	.	.	.	16.ee	16.ee
.	32b	.	.	.	.	.	.	.	.	.	.	32b	32b
=7	=7	=7	=7	=7	=7	=7	=7	=7	=7	=7	=7	=7	=7
2r	8cc#	8a	8A	8A	8A	2r	2r	2r	2r	2r	2r	8cc#	8cc#
.	16.dd	8d	8D	8D	8D	.	.	.	.	.	.	16.dd	16.dd
.	32b	.	.	.	.	.	.	.	.	.	.	32b	32b
.	8a	8e	8E	8E	8E	.	.	.	.	.	.	8a	8a
.	16.b	8e	8E	8E	8E	.	.	.	.	.	.	16.b	16.b
.	32g#	.	.	.	.	.	.	.	.	.	.	32g#	32g#
=8	=8	=8	=8	=8	=8	=8	=8	=8	=8	=8	=8	=8	=8
2r	8a	8a	8A	8A	8A	2r	2r	2r	2r	2r	2r	8a	8a
.	16.A	8A	8AA	8AA	8AA	.	.	.	.	.	.	16.A	16.A
.	32A	.	.	.	.	.	.	.	.	.	.	32A	32A
.	8A	8A	8AA	8AA	8AA	.	.	.	.	.	.	8A	8A
.	8a	8r	8r	8r	8r	.	.	.	.	.	.	8a	8a
=9	=9	=9	=9	=9	=9	=9	=9	=9	=9	=9	=9	=9	=9
2r	8aa	4f#	4F#	4F#	4F#	2r	2r	2r	2r	2r	2r	8aa	8aa
.	4aa	.	.	.	.	.	.	.	.	.	.	4aa	4aa
.	.	4d#	4D#	4D#	4D#	.	.	.	.	.	.	.	.
.	16.bb	.	.	.	.	.	.	.	.	.	.	16.bb	16.bb
.	32ff#	.	.	.	.	.	.	.	.	.	.	32ff#	32ff#
=10	=10	=10	=10	=10	=10	=10	=10	=10	=10	=10	=10	=10	=10
2r	8gg	8e	8E	8E	8E	2r	2r	2r	2r	2r	2r	8gg	8gg
.	8dd#	8f#	8F#	8F#	8F#	.	.	.	.	.	.	8dd#	8dd#
.	8ee	8g	8G	8G	8G	.	.	.	.	.	.	8ee	8ee
.	16ff#	8d#	8D#	8D#	8D#	.	.	.	.	.	.	16ff#	16ff#
.	32ee	.	.	.	.	.	.	.	.	.	.	32ee	32ee
.	32ff#	.	.	.	.	.	.	.	.	.	.	32ff#	32ff#
=11	=11	=11	=11	=11	=11	=11	=11	=11	=11	=11	=11	=11	=11
2r	8gg	8e	8E	8E	8E	2r	2r	2r	2r	2r	2r	8gg	8gg
.	8aa	8f#	8F#	8F#	8F#	.	.	.	.	.	.	8aa	8aa
.	8bb	8g	8G	8G	8G	.	.	.	.	.	.	8bb	8bb
.	16.b	8g#	8G#	8G#	8G#	.	.	.	.	.	.	16.b	16.b
.	32ee	.	.	.	.	.	.	.	.	.	.	32ee	32ee
=12	=12	=12	=12	=12	=12	=12	=12	=12	=12	=12	=12	=12	=12
2r	4dd	8a	8A	8A	8A	2r	2r	2r	2r	2r	2r	4dd	4dd
.	.	8A	8AA	8AA	8AA	.	.	.	.	.	.	.	.
.	8cc#	8A	8AA	8AA	8AA	.	.	.	.	.	.	8cc#	8cc#
.	8a	8r	8r	8r	8r	.	.	.	.	.	.	8a	8a
=13	=13	=13	=13	=13	=13	=13	=13	=13	=13	=13	=13	=13	=13
2r	8gg	4e	4E	4E	4E	2r	2r	2r	2r	2r	2r	8gg	8gg
.	4gg	.	.	.	.	.	.	.	.	.	.	4gg	4gg
.	.	8B	8BB	8BB	8BB	.	.	.	.	.	.	.	.
.	16.aa	8c#	8C#	8C#	8C#	.	.	.	.	.	.	16.aa	16.aa
.	32ee	.	.	.	.	.	.	.	.	.	.	32ee	32ee
=14	=14	=14	=14	=14	=14	=14	=14	=14	=14	=14	=14	=14	=14
2r	8ff#	8d	8D	8D	8D	2r	2r	2r	2r	2r	2r	8ff#	8ff#
.	16cc#	8e	8E	8E	8E	.	.	.	.	.	.	16cc#	16cc#
.	32b	.	.	.	.	.	.	.	.	.	.	32b	32b
.	32cc#	.	.	.	.	.	.	.	.	.	.	32cc#	32cc#
.	8dd	8f#	8F#	8F#	8F#	.	.	.	.	.	.	8dd	8dd
.	8a	8f#	8F#	8F#	8F#	.	.	.	.	.	.	8a	8a
=15	=15	=15	=15	=15	=15	=15	=15	=15	=15	=15	=15	=15	=15
2r	8b	4g	4G	4G	4G	2r	2r	2r	2r	2r	2r	8b	8b
.	16.gg	.	.	.	.	.	.	.	.	.	.	16.gg	16.gg
.	32ee	.	.	.	.	.	.	.	.	.	.	32ee	32ee
.	8dd	8a	8A	8A	8A	.	.	.	.	.	.	8dd	8dd
.	16.ee	8A	8AA	8AA	8AA	.	.	.	.	.	.	16.ee	16.ee
.	32cc#	.	.	.	.	.	.	.	.	.	.	32cc#	32cc#
=16	=16	=16	=16	=16	=16	=16	=16	=16	=16	=16	=16	=16	=16
2r	8dd	8d	8D	8D	8D	4.r	4.r	2r	2r	4.r	4.r	8dd	8dd
.	16.d	8D	8DD	8DD	8DD	.	.	.	.	.	.	16.d	16.d
.	32d	.	.	.	.	.	.	.	.	.	.	32d	32d
.	8d	8D	8DD	8DD	8DD	.	.	.	.	.	.	8d	8d
.	8r	8r	8r	8r	8r	16.aa	16.ff#	.	.	16.gg	16.ee	8r	8r
.	.	.	.	.	.	32gg	32ee	.	.	32ff	32dd	.	.
=17	=17	=17	=17	=17	=17	=17	=17	=17	=17	=17	=17	=17	=17
2r	16d	4d	4D	4D	4D	8ff#	8dd	2r	2r	8ee	8cc	16d	16d
.	16f#	.	.	.	.	.	.	.	.	.	.	16f#	16f#
.	16a	.	.	.	.	8dd	8f#	.	.	8cc	8e	16a	16a
.	16f#	.	.	.	.	.	.	.	.	.	.	16f#	16f#
.	16d	4f#	4F#	4F#	4F#	8r	8r	.	.	8cc	8e	16d	16d
.	16f#	.	.	.	.	.	.	.	.	.	.	16f#	16f#
.	16a	.	.	.	.	8a	[8d	.	.	8r	8r	16a	16a
.	16f#	.	.	.	.	.	.	.	.	.	.	16f#	16f#
=18	=18	=18	=18	=18	=18	=18	=18	=18	=18	=18	=18	=18	=18
2r	16d	4g	4G	4G	4G	8b	8d]	2r	2r	4r	4r	16d	16d
.	16b	.	.	.	.	.	.	.	.	.	.	16b	16b
.	16e	.	.	.	.	8cc#	8e	.	.	.	.	16e	16e
.	16a	.	.	.	.	.	.	.	.	.	.	16a	16a
.	16f#	4f#	4F#	4F#	4F#	8dd	8d	.	.	4gg	4c	16f#	16f#
.	16a	.	.	.	.	.	.	.	.	.	.	16a	16a
.	16dd	.	.	.	.	16ee	8dd	.	.	.	.	16dd	16dd
.	16a	.	.	.	.	16ff#	.	.	.	.	.	16a	16a
=19	=19	=19	=19	=19	=19	=19	=19	=19	=19	=19	=19	=19	=19
2r	16e	4c#	4C#	4C#	4C#	8gg	8ee	2r	2r	4.dd	4.g	16e	16e
.	16g	.	.	.	.	.	.	.	.	.	.	16g	16g
.	16a	.	.	.	.	4gg	4ee	.	.	.	.	16a	16a
.	16g	.	.	.	.	.	.	.	.	.	.	16g	16g
.	16A	4d	4D	4D	4D	.	.	.	.	.	.	16A	16A
.	16g	.	.	.	.	.	.	.	.	.	.	16g	16g
.	16A	.	.	.	.	8ff#	8dd	.	.	8ee	8cc	16A	16A
.	16f#	.	.	.	.	.	.	.	.	.	.	16f#	16f#
=20	=20	=20	=20	=20	=20	=20	=20	=20	=20	=20	=20	=20	=20
2r	16A	8A	8AA	8AA	8AA	4ff#	4dd	2r	2r	4ee	4cc	16A	16A
.	16f#	.	.	.	.	.	.	.	.	.	.	16f#	16f#
.	16a	8a	8A	8A	8A	.	.	.	.	.	.	16a	16a
.	16f#	.	.	.	.	.	.	.	.	.	.	16f#	16f#
.	16A	8A	8AA	8AA	8AA	8ee	8cc#	.	.	8dd	8g	16A	16A
.	16e	.	.	.	.	.	.	.	.	.	.	16e	16e
.	16a	8r	8r	8r	8r	16.aa	16.ff#	.	.	16.gg	16.ee	16a	16a
.	16g	.	.	.	.	.	.	.	.	.	.	16g	16g
.	.	.	.	.	.	32gg	32ee	.	.	32ff	32dd	.	.
=21	=21	=21	=21	=21	=21	=21	=21	=21	=21	=21	=21	=21	=21
2r	16f#	4dd	4d	4d	4d	8ff#	8dd	2r	2r	8ee	8cc	16f#	16f#
.	16a	.	.	.	.	.	.	.	.	.	.	16a	16a
.	16dd	.	.	.	.	8dd	8f#	.	.	8cc	8e	16dd	16dd
.	16a	.	.	.	.	.	.	.	.	.	.	16a	16a
.	16f#	4cc#	4c#	4c#	4c#	8r	8r	.	.	8cc	8e	16f#	16f#
.	16a	.	.	.	.	.	.	.	.	.	.	16a	16a
.	16dd	.	.	.	.	8dd	8f#	.	.	8cc	8e	16dd	16dd
.	16a	.	.	.	.	.	.	.	.	.	.	16a	16a
=22	=22	=22	=22	=22	=22	=22	=22	=22	=22	=22	=22	=22	=22
2r	16f#	4b	4B	4B	4B	8.dd	8.f#	2r	2r	4cc	4e	16f#	16f#
.	16a	.	.	.	.	.	.	.	.	.	.	16a	16a
.	16dd	.	.	.	.	.	.	.	.	.	.	16dd	16dd
.	16dd	.	.	.	.	16ff#	16dd	.	.	.	.	16ff#	16ff#
.	16dd	8f#	8F#	8F#	8F#	16ff#	16dd	.	.	4r	4r	16ff#	16ff#
.	16cc#	.	.	.	.	16ee	16cc#	.	.	.	.	16ee	16ee
.	16cc#	8g#	8G#	8G#	8G#	16ee	16cc#	.	.	.	.	16ee	16ee
.	16b	.	.	.	.	16dd	16b	.	.	.	.	16dd	16dd
=23	=23	=23	=23	=23	=23	=23	=23	=23	=23	=23	=23	=23	=23
2r	8a	8a	8A	8A	8A	8cc#	8a	2r	2r	8dd	8dd	8cc#	8cc#
.	16.f#	8d	8D	8D	8D	16.dd	16.ff#	.	.	8ee	8cc	16.dd	16.dd
.	32d	.	.	.	.	32b	32dd	.	.	.	.	32b	32b
.	8c#	8e	8E	8E	8E	8a	8cc#	.	.	8dd	8dd	8a	8a
.	16.d	8e	8E	8E	8E	8g#	8b	.	.	8dd	8dd	16.b	16.b
.	32B	.	.	.	.	.	.	.	.	.	.	32g#	32g#
=24	=24	=24	=24	=24	=24	=24	=24	=24	=24	=24	=24	=24	=24
2r	4B	8A	8AA	8AA	8AA	4g#	4b	2r	2r	4.dd	4.g	4g#	4g#
.	.	8a	8A	8A	8A	.	.	.	.	.	.	.	.
.	8c#	8A	8AA	8AA	8AA	8a	8a	.	.	.	.	8a	8a
.	8r	8r	8r	8r	8r	16.a	8r	.	.	8r	8r	8r	8r
.	.	.	.	.	.	32b	.	.	.	.	.	.	.
=25	=25	=25	=25	=25	=25	=25	=25	=25	=25	=25	=25	=25	=25
2r	16f#	4f#	4F#	4F#	4F#	8a	8r	2r	2r	2gg	2ee	16f#	16f#
.	16a	.	.	.	.	.	.	.	.	.	.	16a	16a
.	16cc	.	.	.	.	8aa	8cc	.	.	.	.	16cc	16cc
.	16a	.	.	.	.	.	.	.	.	.	.	16a	16a
.	16f#	4d#	4D#	4D#	4D#	8r	[4b	.	.	.	.	16f#	16f#
.	16a	.	.	.	.	.	.	.	.	.	.	16a	16a
.	16b	.	.	.	.	16.ff#	.	.	.	.	.	16b	16b
.	16a	.	.	.	.	.	.	.	.	.	.	16a	16a
.	.	.	.	.	.	32aa	.	.	.	.	.	.	.
=26	=26	=26	=26	=26	=26	=26	=26	=26	=26	=26	=26	=26	=26
2r	16g	8e	8E	8E	8E	8gg	8b]	2r	2r	8ff	8dd	16g	16g
.	16b	.	.	.	.	.	.	.	.	.	.	16b	16b
.	16f#	8f#	8F#	8F#	8F#	8ff#	8a	.	.	4.r	4.r	16f#	16f#
.	16b	.	.	.	.	.	.	.	.	.	.	16b	16b
.	16e	8g	8G	8G	8G	8ee	8g	.	.	.	.	16e	16e
.	16b	.	.	.	.	.	.	.	.	.	.	16b	16b
.	16f#	8d#	8D#	8D#	8D#	16.ff#	8r	.	.	.	.	16f#	16f#
.	16b	.	.	.	.	.	.	.	.	.	.	16b	16b
.	.	.	.	.	.	32aa	.	.	.	.	.	.	.
=27	=27	=27	=27	=27	=27	=27	=27	=27	=27	=27	=27	=27	=27
2r	16g	8e	8E	8E	8E	8gg	8b	2r	2r	2r	2r	16g	16g
.	16b	.	.	.	.	.	.	.	.	.	.	16b	16b
.	16f#	8f#	8F#	8F#	8F#	8ff#	8a	.	.	.	.	16f#	16f#
.	16b	.	.	.	.	.	.	.	.	.	.	16b	16b
.	16e	8g	8G	8G	8G	8ee	8g	.	.	.	.	16e	16e
.	16g	.	.	.	.	.	.	.	.	.	.	16g	16g
.	16b	8g#	8G#	8G#	8G#	16dd	8f#	.	.	.	.	16b	16b
.	16dd	.	.	.	.	32cc#	.	.	.	.	.	16dd	16dd
.	.	.	.	.	.	32dd	.	.	.	.	.	.	.
=28	=28	=28	=28	=28	=28	=28	=28	=28	=28	=28	=28	=28	=28
2r	4dd	8a	8A	8A	8A	4dd	4f#	2r	2r	2r	2r	4dd	4dd
.	.	8A	8AA	8AA	8AA	.	.	.	.	.	.	.	.
.	8cc#	8A	8AA	8AA	8AA	16.cc#	8e	.	.	.	.	8cc#	8cc#
.	.	.	.	.	.	32dd	.	.	.	.	.	.	.
.	8r	8r	8r	8r	8r	16.ee	16.cc#	.	.	.	.	8r	8r
.	.	.	.	.	.	32ff#	32dd	.	.	.	.	.	.
=29	=29	=29	=29	=29	=29	=29	=29	=29	=29	=29	=29	=29	=29
2r	16A	4A	4AA	4AA	4AA	8gg	8ee	2r	2r	2dd	2g	16A	16A
.	16e	.	.	.	.	.	.	.	.	.	.	16e	16e
.	16g	.	.	.	.	4gg	4ee	.	.	.	.	16g	16g
.	16e	.	.	.	.	.	.	.	.	.	.	16e	16e
.	16A	4a	4A	4A	4A	.	.	.	.	.	.	16A	16A
.	16e	.	.	.	.	.	.	.	.	.	.	16e	16e
.	16g	.	.	.	.	16.ee	16.cc#	.	.	.	.	16g	16g
.	16e	.	.	.	.	.	.	.	.	.	.	16e	16e
.	.	.	.	.	.	32gg	32ee	.	.	.	.	.	.
=30	=30	=30	=30	=30	=30	=30	=30	=30	=30	=30	=30	=30	=30
2r	16A	8d	8D	8D	8D	8ff#	8dd	2r	2r	8ee	8cc	16A	16A
.	16f#	.	.	.	.	.	.	.	.	.	.	16f#	16f#
.	16e	8e	8E	8E	8E	16cc#	8g	.	.	8ff	8dd	16e	16e
.	16cc#	.	.	.	.	32b	.	.	.	.	.	16cc#	16cc#
.	.	.	.	.	.	32cc#	.	.	.	.	.	.	.
.	16dd	8f#	8F#	8F#	8F#	8dd	8a	.	.	8gg	8ee	16dd	16dd
.	16a	.	.	.	.	.	.	.	.	.	.	16a	16a
.	16f#	8f#	8F#	8F#	8F#	8a	8d	.	.	8gg	8ee	16f#	16f#
.	16d	.	.	.	.	.	.	.	.	.	.	16d	16d
=31	=31	=31	=31	=31	=31	=31	=31	=31	=31	=31	=31	=31	=31
2r	16b	4g	4G	4G	4G	8b	8d	2r	2r	8.aa	8.ff	16b	16b
.	16g	.	.	.	.	.	.	.	.	.	.	16g	16g
.	16.b	.	.	.	.	16.gg	16.b	.	.	.	.	16.gg	16.gg
.	.	.	.	.	.	.	.	.	.	16ff	16dd	.	.
.	32g	.	.	.	.	32ee	32g	.	.	.	.	32ee	32ee
.	8f#	8a	8A	8A	8A	8dd	8f#	.	.	8ee	8cc	8dd	8dd
.	8e	8A	8AA	8AA	8AA	8cc#	8e	.	.	8dd	8g	8cc#	8cc#
=32	=32	=32	=32	=32	=32	=32	=32	=32	=32	=32	=32	=32	=32
2r	4e	8d	8D	8D	8D	4cc#	4e	2r	2r	4dd	4.c	4cc#	4cc#
.	.	8D	8DD	8DD	8DD	.	.	.	.	.	.	.	.
.	8f#	8D	8DD	8DD	8DD	8dd	8f#	.	.	8cc	.	8dd	8dd
.	8r	8r	8a	8r	8r	8r	8r	.	.	8r	8r	8r	8r
=33	=33	=33	=33	=33	=33	=33	=33	=33	=33	=33	=33	=33	=33
2r	8r	8r	[6..dd	4D	4D	2r	2r	2r	2r	2r	2r	8r	8r
.	8f#	8d	.	.	.	.	.	.	.	.	.	8dd	8dd
.	8r	8r	.	4F#	4F#	.	.	.	.	.	.	8r	8r
.	.	.	48dd]	.	.	.	.	.	.	.	.	.	.
.	.	.	32a	.	.	.	.	.	.	.	.	.	.
.	.	.	32g	.	.	.	.	.	.	.	.	.	.
.	8d	8f#	16f#	.	.	.	.	.	.	.	.	8a	8a
.	.	.	32e	.	.	.	.	.	.	.	.	.	.
.	.	.	32d	.	.	.	.	.	.	.	.	.	.
=34	=34	=34	=34	=34	=34	=34	=34	=34	=34	=34	=34	=34	=34
2r	8r	8r	16d	4G	4G	2r	2r	2r	2r	2r	2r	8r	8r
.	.	.	16b	.	.	.	.	.	.	.	.	.	.
.	8d	8g	16b	.	.	.	.	.	.	.	.	8b	8b
.	.	.	16b	.	.	.	.	.	.	.	.	.	.
.	8r	8r	16a	4F#	4F#	.	.	.	.	.	.	8r	8r
.	.	.	16d	.	.	.	.	.	.	.	.	.	.
.	8d	8f#	16d	.	.	.	.	.	.	.	.	8a	8a
.	.	.	16d	.	.	.	.	.	.	.	.	.	.
=35	=35	=35	=35	=35	=35	=35	=35	=35	=35	=35	=35	=35	=35
2r	8r	8r	32c#	4E	4E	2r	2r	2r	2r	2r	2r	8r	8r
.	.	.	32d	.	.	.	.	.	.	.	.	.	.
.	.	.	32e	.	.	.	.	.	.	.	.	.	.
.	.	.	32f#	.	.	.	.	.	.	.	.	.	.
.	8e	8e	4g	.	.	.	.	.	.	.	.	8g	8g
.	8e	8c#	.	8C#	8C#	.	.	.	.	.	.	8g	8g
.	8d	8d	8f#	8D	8D	.	.	.	.	.	.	8f#	8f#
=36	=36	=36	=36	=36	=36	=36	=36	=36	=36	=36	=36	=36	=36
2r	4d	8A	4f#	8AA	8AA	2r	2r	2r	2r	2r	2r	4f#	4f#
.	.	8a	.	8A	8A	.	.	.	.	.	.	.	.
.	8c#	8A	8e	8AA	8AA	.	.	.	.	.	.	8e	8e
.	8r	8r	8a	8r	8r	.	.	.	.	.	.	8r	8r
=37	=37	=37	=37	=37	=37	=37	=37	=37	=37	=37	=37	=37	=37
2r	8r	8r	[6..dd	4d	4d	2r	2r	2r	2r	2r	2r	8r	8r
.	8f#	8d	.	.	.	.	.	.	.	.	.	8dd	8dd
.	8r	8r	.	4c#	4c#	.	.	.	.	.	.	8r	8r
.	.	.	48dd]	.	.	.	.	.	.	.	.	.	.
.	.	.	32a	.	.	.	.	.	.	.	.	.	.
.	.	.	32g	.	.	.	.	.	.	.	.	.	.
.	8f#	8c#	16f#	.	.	.	.	.	.	.	.	8dd	8dd
.	.	.	32e	.	.	.	.	.	.	.	.	.	.
.	.	.	32d	.	.	.	.	.	.	.	.	.	.
=38	=38	=38	=38	=38	=38	=38	=38	=38	=38	=38	=38	=38	=38
2r	8r	8r	[4dd	4B	4B	2r	2r	2r	2r	2r	2r	8r	8r
.	8f#	8B	.	.	.	.	.	.	.	.	.	8dd	8dd
.	8a	8F#	32dd]	8F#	8F#	.	.	.	.	.	.	8dd	8dd
.	.	.	32cc#	.	.	.	.	.	.	.	.	.	.
.	.	.	32b	.	.	.	.	.	.	.	.	.	.
.	.	.	32a	.	.	.	.	.	.	.	.	.	.
.	8b	8G#	32g#	8G#	8G#	.	.	.	.	.	.	8dd	8dd
.	.	.	32f#	.	.	.	.	.	.	.	.	.	.
.	.	.	32e	.	.	.	.	.	.	.	.	.	.
.	.	.	32d	.	.	.	.	.	.	.	.	.	.
=39	=39	=39	=39	=39	=39	=39	=39	=39	=39	=39	=39	=39	=39
2r	8e	8A	16c#	8A	8A	2r	2r	2r	2r	2r	2r	8cc#	8cc#
.	.	.	16a	.	.	.	.	.	.	.	.	.	.
.	16f#	8d	16f#	8D	8D	.	.	.	.	.	.	16dd	16dd
.	16d	.	32dd	.	.	.	.	.	.	.	.	16b	16b
.	.	.	32b	.	.	.	.	.	.	.	.	.	.
.	8c#	8e	4b	8E	8E	.	.	.	.	.	.	8a	8a
.	8B	8e	.	8E	8E	.	.	.	.	.	.	8g#	8g#
=40	=40	=40	=40	=40	=40	=40	=40	=40	=40	=40	=40	=40	=40
2r	4A	8A	4a	8AA	8AA	2r	2r	2r	2r	2r	2r	4a	4a
.	.	8a	.	8A	8A	.	.	.	.	.	.	.	.
.	4r	8A	8r	8AA	8AA	.	.	.	.	.	.	8r	8r
.	.	8r	8A	8r	8r	.	.	.	.	.	.	8r	8r
=41	=41	=41	=41	=41	=41	=41	=41	=41	=41	=41	=41	=41	=41
2r	8r	8r	8a	4F#	4F#	2r	2r	2r	2r	2r	2r	8r	8r
.	8c	8f#	4a	.	.	.	.	.	.	.	.	8a	8a
.	8r	8r	.	4D#	4D#	.	.	.	.	.	.	8r	8r
.	8B	8d#	32b	.	.	.	.	.	.	.	.	8a	8a
.	.	.	32a	.	.	.	.	.	.	.	.	.	.
.	.	.	32g	.	.	.	.	.	.	.	.	.	.
.	.	.	32f#	.	.	.	.	.	.	.	.	.	.
=42	=42	=42	=42	=42	=42	=42	=42	=42	=42	=42	=42	=42	=42
2r	8B	8e	8.g	8E	8E	2r	2r	2r	2r	2r	2r	8g	8g
.	8B	8f#	.	8F#	8F#	.	.	.	.	.	.	8f#	8f#
.	.	.	16a	.	.	.	.	.	.	.	.	.	.
.	8B	8g	16b	8G	8G	.	.	.	.	.	.	8e	8e
.	.	.	32a	.	.	.	.	.	.	.	.	.	.
.	.	.	32b	.	.	.	.	.	.	.	.	.	.
.	8B	8d#	16cc	8D#	8D#	.	.	.	.	.	.	8f#	8f#
.	.	.	32b	.	.	.	.	.	.	.	.	.	.
.	.	.	32a	.	.	.	.	.	.	.	.	.	.
=43	=43	=43	=43	=43	=43	=43	=43	=43	=43	=43	=43	=43	=43
2r	8B	8e	8.g	8E	8E	2r	2r	2r	2r	2r	2r	8g	8g
.	8B	8f#	.	8F#	8F#	.	.	.	.	.	.	8f#	8f#
.	.	.	16f#	.	.	.	.	.	.	.	.	.	.
.	8B	8g	32e	8G	8G	.	.	.	.	.	.	8e	8e
.	.	.	32f#	.	.	.	.	.	.	.	.	.	.
.	.	.	32g	.	.	.	.	.	.	.	.	.	.
.	.	.	32a	.	.	.	.	.	.	.	.	.	.
.	8b	8g#	32b	8G#	8G#	.	.	.	.	.	.	8ee	8ee
.	.	.	32cc#	.	.	.	.	.	.	.	.	.	.
.	.	.	32dd	.	.	.	.	.	.	.	.	.	.
.	.	.	32ee	.	.	.	.	.	.	.	.	.	.
=44	=44	=44	=44	=44	=44	=44	=44	=44	=44	=44	=44	=44	=44
2r	4f#	8a	4dd	8A	8A	2r	2r	2r	2r	2r	2r	4dd	4dd
.	.	8A	.	8AA	8AA	.	.	.	.	.	.	.	.
.	8e	8A	8cc#	8AA	8AA	.	.	.	.	.	.	8cc#	8cc#
.	8r	8r	8A	8r	8r	.	.	.	.	.	.	8r	8r
=45	=45	=45	=45	=45	=45	=45	=45	=45	=45	=45	=45	=45	=45
2r	8r	8r	8g	4AA	4AA	2r	2r	2r	2r	2r	2r	8r	8r
.	8e	8A	8.g	.	.	.	.	.	.	.	.	8g	8g
.	8r	8r	.	4C#	4C#	.	.	.	.	.	.	8r	8r
.	.	.	32e	.	.	.	.	.	.	.	.	.	.
.	.	.	32d	.	.	.	.	.	.	.	.	.	.
.	8A	8c#	16c#	.	.	.	.	.	.	.	.	8g	8g
.	.	.	32B	.	.	.	.	.	.	.	.	.	.
.	.	.	32A	.	.	.	.	.	.	.	.	.	.
=46	=46	=46	=46	=46	=46	=46	=46	=46	=46	=46	=46	=46	=46
2r	8r	8r	8f#	4D	4D	2r	2r	2r	2r	2r	2r	8r	8r
.	8A	8d	8.dd	.	.	.	.	.	.	.	.	8f#	8f#
.	8r	8r	.	4F#	4F#	.	.	.	.	.	.	8r	8r
.	.	.	32a	.	.	.	.	.	.	.	.	.	.
.	.	.	32g	.	.	.	.	.	.	.	.	.	.
.	8d	8F#	16f#	.	.	.	.	.	.	.	.	8a	8a
.	.	.	32e	.	.	.	.	.	.	.	.	.	.
.	.	.	32d	.	.	.	.	.	.	.	.	.	.
=47	=47	=47	=47	=47	=47	=47	=47	=47	=47	=47	=47	=47	=47
2r	8d	8G	16b	8G	8G	2r	2r	2r	2r	2r	2r	8b	8b
.	.	.	32a	.	.	.	.	.	.	.	.	.	.
.	.	.	32g	.	.	.	.	.	.	.	.	.	.
.	4d	8B	16f#	8B	8B	.	.	.	.	.	.	4d	4d
.	.	.	32e	.	.	.	.	.	.	.	.	.	.
.	.	.	32d	.	.	.	.	.	.	.	.	.	.
.	.	8A	4e	8A	8A	.	.	.	.	.	.	.	.
.	8c#	8A	.	8AA	8AA	.	.	.	.	.	.	8c#	8c#
=48	=48	=48	=48	=48	=48	=48	=48	=48	=48	=48	=48	=48	=48
4.r	4d	8D	4d	8D	8D	2r	2r	2r	2r	2r	2r	4d	4d
.	.	8d	.	8DD	8DD	.	.	.	.	.	.	.	.
.	4r	8D	8r	8DD	8DD	.	.	.	.	.	.	8r	8r
8a	.	8r	8r	8r	8r	.	.	.	.	.	.	8r	8r
=49	=49	=49	=49	=49	=49	=49	=49	=49	=49	=49	=49	=49	=49
24d	8f#	8d	8D	8D	8D	2r	2r	2r	2r	2r	2r	8dd	8dd
24f#	.	.	.	.	.	.	.	.	.	.	.	.	.
24a	.	.	.	.	.	.	.	.	.	.	.	.	.
24dd	8r	8r	8r	8r	8r	.	.	.	.	.	.	8r	8r
24ff#	.	.	.	.	.	.	.	.	.	.	.	.	.
24aa	.	.	.	.	.	.	.	.	.	.	.	.	.
24ddd	8a	8f#	8F#	8F#	8F#	.	.	.	.	.	.	8dd	8dd
24dd	.	.	.	.	.	.	.	.	.	.	.	.	.
24ddd	.	.	.	.	.	.	.	.	.	.	.	.	.
24aa	8r	8r	8r	8r	8r	.	.	.	.	.	.	8r	8r
24dd	.	.	.	.	.	.	.	.	.	.	.	.	.
24aa	.	.	.	.	.	.	.	.	.	.	.	.	.
=50	=50	=50	=50	=50	=50	=50	=50	=50	=50	=50	=50	=50	=50
24bb	8d	8g	8G	8G	8G	2r	2r	2r	2r	2r	2r	8b	8b
24dd	.	.	.	.	.	.	.	.	.	.	.	.	.
24bb	.	.	.	.	.	.	.	.	.	.	.	.	.
24ddd	8r	8r	8r	8r	8r	.	.	.	.	.	.	8r	8r
24dd	.	.	.	.	.	.	.	.	.	.	.	.	.
24ddd	.	.	.	.	.	.	.	.	.	.	.	.	.
24aa	8d	8f#	8F#	8F#	8F#	.	.	.	.	.	.	8a	8a
24dd	.	.	.	.	.	.	.	.	.	.	.	.	.
24aa	.	.	.	.	.	.	.	.	.	.	.	.	.
24ddd	8r	8r	8r	8r	8r	.	.	.	.	.	.	8r	8r
24dd	.	.	.	.	.	.	.	.	.	.	.	.	.
24ddd	.	.	.	.	.	.	.	.	.	.	.	.	.
=51	=51	=51	=51	=51	=51	=51	=51	=51	=51	=51	=51	=51	=51
24a	8ee	8A	8C#	8C#	8C#	2r	2r	2r	2r	2r	2r	8gg	8gg
24cc#	.	.	.	.	.	.	.	.	.	.	.	.	.
24ee	.	.	.	.	.	.	.	.	.	.	.	.	.
24gg	8r	8r	8r	8r	8r	.	.	.	.	.	.	8r	8r
24ff#	.	.	.	.	.	.	.	.	.	.	.	.	.
24gg	.	.	.	.	.	.	.	.	.	.	.	.	.
24a	8dd	8A	8D	8D	8D	.	.	.	.	.	.	8ff#	8ff#
24cc#	.	.	.	.	.	.	.	.	.	.	.	.	.
24dd	.	.	.	.	.	.	.	.	.	.	.	.	.
24ff#	8r	8r	8r	8r	8r	.	.	.	.	.	.	8r	8r
24ee	.	.	.	.	.	.	.	.	.	.	.	.	.
24dd	.	.	.	.	.	.	.	.	.	.	.	.	.
=52	=52	=52	=52	=52	=52	=52	=52	=52	=52	=52	=52	=52	=52
24cc#	8cc#	8A	8AA	8AA	8AA	2r	2r	2r	2r	2r	2r	8ee	8ee
24a	.	.	.	.	.	.	.	.	.	.	.	.	.
24cc#	.	.	.	.	.	.	.	.	.	.	.	.	.
24ee	8cc#	8A	8AA	8AA	8AA	.	.	.	.	.	.	8ee	8ee
24cc#	.	.	.	.	.	.	.	.	.	.	.	.	.
24ee	.	.	.	.	.	.	.	.	.	.	.	.	.
8aa	8cc#	8A	8AA	8AA	8AA	.	.	.	.	.	.	8ee	8ee
8a	8r	8r	8r	8r	8r	.	.	.	.	.	.	8r	8r
=53	=53	=53	=53	=53	=53	=53	=53	=53	=53	=53	=53	=53	=53
24d	8f#	8d	8d	8d	8d	2r	2r	2r	2r	2r	2r	8dd	8dd
24f#	.	.	.	.	.	.	.	.	.	.	.	.	.
24a	.	.	.	.	.	.	.	.	.	.	.	.	.
24dd	8r	8r	8r	8r	8r	.	.	.	.	.	.	8r	8r
24ff#	.	.	.	.	.	.	.	.	.	.	.	.	.
24aa	.	.	.	.	.	.	.	.	.	.	.	.	.
24ddd	8f#	8c#	8c#	8c#	8c#	.	.	.	.	.	.	8dd	8dd
24dd	.	.	.	.	.	.	.	.	.	.	.	.	.
24ddd	.	.	.	.	.	.	.	.	.	.	.	.	.
24ddd	8r	8r	8r	8r	8r	.	.	.	.	.	.	8r	8r
24dd	.	.	.	.	.	.	.	.	.	.	.	.	.
24ddd	.	.	.	.	.	.	.	.	.	.	.	.	.
=54	=54	=54	=54	=54	=54	=54	=54	=54	=54	=54	=54	=54	=54
24ddd	8f#	8B	8B	8B	8B	2r	2r	2r	2r	2r	2r	8dd	8dd
24dd	.	.	.	.	.	.	.	.	.	.	.	.	.
24ddd	.	.	.	.	.	.	.	.	.	.	.	.	.
24ddd	8r	8r	8r	8r	8r	.	.	.	.	.	.	8r	8r
24dd	.	.	.	.	.	.	.	.	.	.	.	.	.
24ddd	.	.	.	.	.	.	.	.	.	.	.	.	.
24ddd	8a	8F#	8F#	8F#	8F#	.	.	.	.	.	.	8dd	8dd
24ccc#	.	.	.	.	.	.	.	.	.	.	.	.	.
24ddd	.	.	.	.	.	.	.	.	.	.	.	.	.
24eee	8b	8E	8G#	8G#	8G#	.	.	.	.	.	.	8dd	8dd
24bb	.	.	.	.	.	.	.	.	.	.	.	.	.
24ddd	.	.	.	.	.	.	.	.	.	.	.	.	.
=55	=55	=55	=55	=55	=55	=55	=55	=55	=55	=55	=55	=55	=55
24ccc#	8e	8E	8A	8A	8A	2r	2r	2r	2r	2r	2r	8cc#	8cc#
24gg#	.	.	.	.	.	.	.	.	.	.	.	.	.
24aa	.	.	.	.	.	.	.	.	.	.	.	.	.
24ff#	8b	8F#	8D	8D	8D	.	.	.	.	.	.	8dd	8dd
24ee	.	.	.	.	.	.	.	.	.	.	.	.	.
24dd	.	.	.	.	.	.	.	.	.	.	.	.	.
24cc#	8a	8E	8E	8E	8E	.	.	.	.	.	.	8cc#	8cc#
24ee	.	.	.	.	.	.	.	.	.	.	.	.	.
24aa	.	.	.	.	.	.	.	.	.	.	.	.	.
24b	8g#	8E	8E	8E	8E	.	.	.	.	.	.	8b	8b
24dd	.	.	.	.	.	.	.	.	.	.	.	.	.
24gg#	.	.	.	.	.	.	.	.	.	.	.	.	.
=56	=56	=56	=56	=56	=56	=56	=56	=56	=56	=56	=56	=56	=56
24a	8a	8E	8A	8A	8A	2r	2r	2r	2r	2r	2r	8a	8a
24cc#	.	.	.	.	.	.	.	.	.	.	.	.	.
24ee	.	.	.	.	.	.	.	.	.	.	.	.	.
24aa	8c#	8E	8AA	8AA	8AA	.	.	.	.	.	.	8a	8a
24ee	.	.	.	.	.	.	.	.	.	.	.	.	.
24cc#	.	.	.	.	.	.	.	.	.	.	.	.	.
8a	8c#	8E	8AA	8AA	8AA	.	.	.	.	.	.	8a	8a
8a	8r	8r	8r	8r	8r	.	.	.	.	.	.	8r	8r
=57	=57	=57	=57	=57	=57	=57	=57	=57	=57	=57	=57	=57	=57
24a	8f#	8f#	8F#	8F#	8F#	2r	2r	2r	2r	2r	2r	8a	8a
24aa	.	.	.	.	.	.	.	.	.	.	.	.	.
24aa	.	.	.	.	.	.	.	.	.	.	.	.	.
24aa	8r	8r	8r	8r	8r	.	.	.	.	.	.	8r	8r
24aa	.	.	.	.	.	.	.	.	.	.	.	.	.
24aa	.	.	.	.	.	.	.	.	.	.	.	.	.
24aa	8f#	8d#	8D#	8D#	8D#	.	.	.	.	.	.	8b	8b
24gg	.	.	.	.	.	.	.	.	.	.	.	.	.
24ff#	.	.	.	.	.	.	.	.	.	.	.	.	.
24ccc	8r	8r	8r	8r	8r	.	.	.	.	.	.	8r	8r
24bb	.	.	.	.	.	.	.	.	.	.	.	.	.
24aa	.	.	.	.	.	.	.	.	.	.	.	.	.
=58	=58	=58	=58	=58	=58	=58	=58	=58	=58	=58	=58	=58	=58
24gg	8g	8e	8E	8E	8E	2r	2r	2r	2r	2r	2r	8b	8b
24bb	.	.	.	.	.	.	.	.	.	.	.	.	.
24bb	.	.	.	.	.	.	.	.	.	.	.	.	.
24dd#	8d#	8f#	8F#	8F#	8F#	.	.	.	.	.	.	8b	8b
24bb	.	.	.	.	.	.	.	.	.	.	.	.	.
24bb	.	.	.	.	.	.	.	.	.	.	.	.	.
24ee	8e	8g	8G	8G	8G	.	.	.	.	.	.	8b	8b
24bb	.	.	.	.	.	.	.	.	.	.	.	.	.
24bb	.	.	.	.	.	.	.	.	.	.	.	.	.
24ff#	8f#	8d#	8D#	8D#	8D#	.	.	.	.	.	.	8b	8b
24bb	.	.	.	.	.	.	.	.	.	.	.	.	.
24bb	.	.	.	.	.	.	.	.	.	.	.	.	.
=59	=59	=59	=59	=59	=59	=59	=59	=59	=59	=59	=59	=59	=59
24gg	8g	8e	8E	8E	8E	2r	2r	2r	2r	2r	2r	8b	8b
24bb	.	.	.	.	.	.	.	.	.	.	.	.	.
24bb	.	.	.	.	.	.	.	.	.	.	.	.	.
24dd#	8d#	8f#	8F#	8F#	8F#	.	.	.	.	.	.	8b	8b
24bb	.	.	.	.	.	.	.	.	.	.	.	.	.
24bb	.	.	.	.	.	.	.	.	.	.	.	.	.
24ee	8e	8g	8G	8G	8G	.	.	.	.	.	.	8b	8b
24bb	.	.	.	.	.	.	.	.	.	.	.	.	.
24bb	.	.	.	.	.	.	.	.	.	.	.	.	.
24b	8b	8g#	8G#	8G#	8G#	.	.	.	.	.	.	8ee	8ee
24ee	.	.	.	.	.	.	.	.	.	.	.	.	.
24ee	.	.	.	.	.	.	.	.	.	.	.	.	.
=60	=60	=60	=60	=60	=60	=60	=60	=60	=60	=60	=60	=60	=60
4dd	4f#	8a	8A	8A	8A	2r	2r	2r	2r	2r	2r	4dd	4dd
.	.	8A	8AA	8AA	8AA	.	.	.	.	.	.	.	.
8cc#	8e	8A	8AA	8AA	8AA	.	.	.	.	.	.	8cc#	8cc#
8a	8r	8r	8r	8r	8r	.	.	.	.	.	.	8r	8r
=61	=61	=61	=61	=61	=61	=61	=61	=61	=61	=61	=61	=61	=61
24g	8b	8e	8E	8E	8E	2r	2r	2r	2r	2r	2r	8gg	8gg
24gg	.	.	.	.	.	.	.	.	.	.	.	.	.
24gg	.	.	.	.	.	.	.	.	.	.	.	.	.
24gg	8r	8r	8r	8r	8r	.	.	.	.	.	.	8r	8r
24gg	.	.	.	.	.	.	.	.	.	.	.	.	.
24gg	.	.	.	.	.	.	.	.	.	.	.	.	.
24gg	8a	8e	8C#	8C#	8C#	.	.	.	.	.	.	8gg	8gg
24ff#	.	.	.	.	.	.	.	.	.	.	.	.	.
24gg	.	.	.	.	.	.	.	.	.	.	.	.	.
24bb	8r	8r	8r	8r	8r	.	.	.	.	.	.	8r	8r
24aa	.	.	.	.	.	.	.	.	.	.	.	.	.
24gg	.	.	.	.	.	.	.	.	.	.	.	.	.
=62	=62	=62	=62	=62	=62	=62	=62	=62	=62	=62	=62	=62	=62
24ff#	8a	8d	8D	8D	8D	2r	2r	2r	2r	2r	2r	8ff#	8ff#
24ddd	.	.	.	.	.	.	.	.	.	.	.	.	.
24ddd	.	.	.	.	.	.	.	.	.	.	.	.	.
24gg	8g	8e	8E	8E	8E	.	.	.	.	.	.	8cc#	8cc#
24ddd	.	.	.	.	.	.	.	.	.	.	.	.	.
24ddd	.	.	.	.	.	.	.	.	.	.	.	.	.
24aa	8a	8f#	8F#	8F#	8F#	.	.	.	.	.	.	8dd	8dd
24ddd	.	.	.	.	.	.	.	.	.	.	.	.	.
24ddd	.	.	.	.	.	.	.	.	.	.	.	.	.
24dd	8d	8f#	8F#	8F#	8F#	.	.	.	.	.	.	8a	8a
24aa	.	.	.	.	.	.	.	.	.	.	.	.	.
24aa	.	.	.	.	.	.	.	.	.	.	.	.	.
=63	=63	=63	=63	=63	=63	=63	=63	=63	=63	=63	=63	=63	=63
24bb	8d	4g	4G	4G	4G	2r	2r	2r	2r	2r	2r	8b	8b
24ddd	.	.	.	.	.	.	.	.	.	.	.	.	.
24ccc#	.	.	.	.	.	.	.	.	.	.	.	.	.
24bb	8g	.	.	.	.	.	.	.	.	.	.	8ee	8ee
24aa	.	.	.	.	.	.	.	.	.	.	.	.	.
24gg	.	.	.	.	.	.	.	.	.	.	.	.	.
24ff#	8f#	8a	8A	8A	8A	.	.	.	.	.	.	8dd	8dd
24aa	.	.	.	.	.	.	.	.	.	.	.	.	.
24ddd	.	.	.	.	.	.	.	.	.	.	.	.	.
24ee	8e	8A	8AA	8AA	8AA	.	.	.	.	.	.	8cc#	8cc#
24gg	.	.	.	.	.	.	.	.	.	.	.	.	.
24ccc#	.	.	.	.	.	.	.	.	.	.	.	.	.
=64	=64	=64	=64	=64	=64	=64	=64	=64	=64	=64	=64	=64	=64
24dd	8f#	8A	8D	8D	8D	2r	2r	4.r	2r	4.r	4.r	8dd	8dd
24ff#	.	.	.	.	.	.	.	.	.	.	.	.	.
24aa	.	.	.	.	.	.	.	.	.	.	.	.	.
24ddd	8f#	8A	8DD	8DD	8DD	.	.	.	.	.	.	8dd	8dd
24aa	.	.	.	.	.	.	.	.	.	.	.	.	.
24ff#	.	.	.	.	.	.	.	.	.	.	.	.	.
8dd	8f#	8A	8DD	8DD	8DD	.	.	.	.	.	.	8dd	8dd
8r	8r	8r	8r	8r	8r	.	.	16cc	.	8r	8r	16d	16d
.	.	.	.	.	.	.	.	16ee	.	.	.	16f#	16f#
=65	=65	=65	=65	=65	=65	=65	=65	=65	=65	=65	=65	=65	=65
2r	8f#	[2d	4D	4D	4D	2r	2r	8gg	16c	8ee	[2c	8a	8a
.	.	.	.	.	.	.	.	.	16cc	.	.	.	.
.	4f#	.	.	.	.	.	.	4gg	16ee	4ee	.	4a	4a
.	.	.	.	.	.	.	.	.	16cc	.	.	.	.
.	.	.	4F#	4F#	4F#	.	.	.	16c	.	.	.	.
.	.	.	.	.	.	.	.	.	16cc	.	.	.	.
.	8d	.	.	.	.	.	.	8ccc	16ee	8ee	.	8dd	8dd
.	.	.	.	.	.	.	.	.	16cc	.	.	.	.
=66	=66	=66	=66	=66	=66	=66	=66	=66	=66	=66	=66	=66	=66
2r	4.d	2d]	4G	4G	4G	2r	2r	16bb	16c	4ff	4c]	16cc#	16cc#
.	.	.	.	.	.	.	.	16aa	16cc	.	.	16b	16b
.	.	.	.	.	.	.	.	16ccc	16ff	.	.	16dd	16dd
.	.	.	.	.	.	.	.	16aa	16cc	.	.	16b	16b
.	.	.	4F#	4F#	4F#	.	.	8gg	16c	8ee	4r	8a	8a
.	.	.	.	.	.	.	.	.	16cc	.	.	.	.
.	8d	.	.	.	.	.	.	8ccc	16ee	8ee	.	8dd	8dd
.	.	.	.	.	.	.	.	.	16cc	.	.	.	.
=67	=67	=67	=67	=67	=67	=67	=67	=67	=67	=67	=67	=67	=67
2r	8g	[2A	4C#	4C#	4C#	2r	2r	24bb	16G	8dd	4g	24cc#	24cc#
.	.	.	.	.	.	.	.	24ccc	.	.	.	24dd	24dd
.	.	.	.	.	.	.	.	.	16g	.	.	.	.
.	.	.	.	.	.	.	.	24ddd	.	.	.	24ee	24ee
.	4e	.	.	.	.	.	.	4ff	16dd	4dd	.	4g	4g
.	.	.	.	.	.	.	.	.	16g	.	.	.	.
.	.	.	4D	4D	4D	.	.	.	16G	.	8r	.	.
.	.	.	.	.	.	.	.	.	16g	.	.	.	.
.	8d	.	.	.	.	.	.	8ee	16cc	8cc	8g	8f#	8f#
.	.	.	.	.	.	.	.	.	16g	.	.	.	.
=68	=68	=68	=68	=68	=68	=68	=68	=68	=68	=68	=68	=68	=68
2r	4d	4.A]	8AA	8AA	8AA	2r	2r	4ee	16G	4cc	4.g	4f#	4f#
.	.	.	.	.	.	.	.	.	16g	.	.	.	.
.	.	.	8A	8A	8A	.	.	.	16G	.	.	.	.
.	.	.	.	.	.	.	.	.	16g	.	.	.	.
.	8c#	.	8AA	8AA	8AA	.	.	8dd	8G	8g	.	8e	8e
.	8r	8r	8r	8r	8r	.	.	16cc	8r	8r	8r	16d	16d
.	.	.	.	.	.	.	.	16ee	.	.	.	16f#	16f#
=69	=69	=69	=69	=69	=69	=69	=69	=69	=69	=69	=69	=69	=69
2r	8f#	4d	4d	4d	4d	2r	2r	8gg	16c	8ee	4c	8a	8a
.	.	.	.	.	.	.	.	.	16cc	.	.	.	.
.	8f#	.	.	.	.	.	.	8ccc	16ee	8ee	.	8dd	8dd
.	.	.	.	.	.	.	.	.	16cc	.	.	.	.
.	8f#	4c#	4c#	4c#	4c#	.	.	8ccc	16c	8ee	4r	8dd	8dd
.	.	.	.	.	.	.	.	.	16cc	.	.	.	.
.	8f#	.	.	.	.	.	.	8ccc	16ee	8ee	.	8dd	8dd
.	.	.	.	.	.	.	.	.	16cc	.	.	.	.
=70	=70	=70	=70	=70	=70	=70	=70	=70	=70	=70	=70	=70	=70
2r	8.f#	4B	4B	4B	4B	2r	2r	8.ccc	8c	8.ee	4cc	8.dd	8.dd
.	.	.	.	.	.	.	.	.	8cc	.	.	.	.
.	16dd	.	.	.	.	.	.	16eee	.	16ccc	.	16ff#	16ff#
.	16dd	8F#	8F#	8F#	8F#	.	.	16eee	8ee	16ccc	8r	16ff#	16ff#
.	16cc#	.	.	.	.	.	.	16ddd	.	16bb	.	16ee	16ee
.	16cc#	8G#	8G#	8G#	8G#	.	.	16ddd	8ff#	16bb	8dd	16ee	16ee
.	16b	.	.	.	.	.	.	16ccc	.	16aa	.	16dd	16dd
=71	=71	=71	=71	=71	=71	=71	=71	=71	=71	=71	=71	=71	=71
2r	8a	8A	8A	8A	8A	2r	2r	8bb	8gg	8gg	8dd	8cc#	8cc#
.	16.f#	8d	8D	8D	8D	.	.	16.ccc	8cc	16.ee	8ee	16.dd	16.dd
.	32b	.	.	.	.	.	.	32aa	.	32aa	.	32b	32b
.	8a	8e	8E	8E	8E	.	.	8gg	8dd	8gg	8dd	8a	8a
.	8g#	8e	8E	8E	8E	.	.	8aa	8dd	8ff#	8dd	8b	8b
=72	=72	=72	=72	=72	=72	=72	=72	=72	=72	=72	=72	=72	=72
2r	4a	8A	8AA	8AA	8AA	2r	2r	4gg	4g	4gg	4dd	4a	4a
.	.	8a	8A	8A	8A	.	.	.	.	.	.	.	.
.	8r	8A	8AA	8AA	8AA	.	.	8r	8r	8r	8r	8r	8r
.	8r	8r	8r	8r	8r	.	.	16ee	8r	8r	8r	16f#	16f#
.	.	.	.	.	.	.	.	16ff	.	.	.	16g	16g
=73	=73	=73	=73	=73	=73	=73	=73	=73	=73	=73	=73	=73	=73
2r	4c	2f#	4F#	4F#	4F#	2r	2r	8gg	2r	2ee	2r	8a	8a
.	.	.	.	.	.	.	.	4gg	.	.	.	4a	4a
.	4B	.	4D#	4D#	4D#	.	.	.	.	.	.	.	.
.	.	.	.	.	.	.	.	16ee	.	.	.	16b	16b
.	.	.	.	.	.	.	.	16gg	.	.	.	16f#	16f#
=74	=74	=74	=74	=74	=74	=74	=74	=74	=74	=74	=74	=74	=74
2r	[2B	8e	8E	8E	8E	2r	2r	16ff	2r	4dd	2r	8g	8g
.	.	.	.	.	.	.	.	16aa	.	.	.	.	.
.	.	8A	8F#	8F#	8F#	.	.	16ee	.	.	.	8d#	8d#
.	.	.	.	.	.	.	.	16gg	.	.	.	.	.
.	.	8G	8G	8G	8G	.	.	16dd	.	4r	.	8e	8e
.	.	.	.	.	.	.	.	16ff	.	.	.	.	.
.	.	8d#	8D#	8D#	8D#	.	.	16ee	.	.	.	16b	16b
.	.	.	.	.	.	.	.	16gg	.	.	.	16f#	16f#
=75	=75	=75	=75	=75	=75	=75	=75	=75	=75	=75	=75	=75	=75
2r	4.B]	8e	8E	8E	8E	2r	2r	16ff	2r	2r	2r	8g	8g
.	.	.	.	.	.	.	.	16aa	.	.	.	.	.
.	.	8A	8F#	8F#	8F#	.	.	16ee	.	.	.	8d#	8d#
.	.	.	.	.	.	.	.	16gg	.	.	.	.	.
.	.	8G	8G	8G	8G	.	.	8dd	.	.	.	16e	16e
.	.	.	.	.	.	.	.	.	.	.	.	16g	16g
.	8b	8G#	8G#	8G#	8G#	.	.	8ddd	.	.	.	16b	16b
.	.	.	.	.	.	.	.	.	.	.	.	16ee	16ee
=76	=76	=76	=76	=76	=76	=76	=76	=76	=76	=76	=76	=76	=76
2r	4f#	8A	8A	8A	8A	2r	2r	4ccc	2r	2r	2r	4dd	4dd
.	.	8a	8AA	8AA	8AA	.	.	.	.	.	.	.	.
.	8e	8A	8AA	8AA	8AA	.	.	8bb	.	.	.	8cc#	8cc#
.	16c#	8r	8r	8r	8r	.	.	16dd	.	.	.	16e	16e
.	16d	.	.	.	.	.	.	16ee	.	.	.	16f#	16f#
=77	=77	=77	=77	=77	=77	=77	=77	=77	=77	=77	=77	=77	=77
2r	8e	[2A	4AA	4AA	4AA	2r	2r	8ff	16G	8dd	2G	8g	8g
.	.	.	.	.	.	.	.	.	16g	.	.	.	.
.	4g	.	.	.	.	.	.	4ddd	16dd	4ff	.	4ee	4ee
.	.	.	.	.	.	.	.	.	16g	.	.	.	.
.	.	.	4C#	4C#	4C#	.	.	.	16G	.	.	.	.
.	.	.	.	.	.	.	.	.	16g	.	.	.	.
.	8e	.	.	.	.	.	.	8ff	16dd	8dd	.	8g	8g
.	.	.	.	.	.	.	.	.	16g	.	.	.	.
=78	=78	=78	=78	=78	=78	=78	=78	=78	=78	=78	=78	=78	=78
2r	8d	4A]	4D	4D	4D	2r	2r	8ee	16c	8cc	[2c	8f#	8f#
.	.	.	.	.	.	.	.	.	16cc	.	.	.	.
.	8f#	.	.	.	.	.	.	4ccc	16ee	4ee	.	4dd	4dd
.	.	.	.	.	.	.	.	.	16cc	.	.	.	.
.	8a	4F#	4F#	4F#	4F#	.	.	.	16c	.	.	.	.
.	.	.	.	.	.	.	.	.	16cc	.	.	.	.
.	8d	.	.	.	.	.	.	8gg	16ee	8ee	.	8a	8a
.	.	.	.	.	.	.	.	.	16cc	.	.	.	.
=79	=79	=79	=79	=79	=79	=79	=79	=79	=79	=79	=79	=79	=79
2r	4d	8G	8G	8G	8G	2r	2r	24aa	4c	24ff	4c]	24b	24b
.	.	.	.	.	.	.	.	24ccc	.	24aa	.	24dd	24dd
.	.	.	.	.	.	.	.	24bb	.	24gg	.	24cc#	24cc#
.	.	8G	8G	8G	8G	.	.	24aa	.	24ff	.	24b	24b
.	.	.	.	.	.	.	.	24gg	.	24ee	.	24a	24a
.	.	.	.	.	.	.	.	24ff	.	24dd	.	24g	24g
.	8d	8A	8A	8A	8A	.	.	8ee	8g	8cc	8g	8f#	8f#
.	8c#	8A	8AA	8AA	8AA	.	.	8dd	8g	8dd	8g	8e	8e
=80	=80	=80	=80	=80	=80	=80	=80	=80	=80	=80	=80	=80	=80
2r	4d	8D	8D	8D	8D	2r	2r	4cc	16c	4cc	4c	4d	4d
.	.	.	.	.	.	.	.	.	16cc	.	.	.	.
.	.	8d	8DD	8DD	8DD	.	.	.	16ee	.	.	.	.
.	.	.	.	.	.	.	.	.	16cc	.	.	.	.
.	8r	8D	8DD	8DD	8DD	.	.	4r	8c	8r	8r	8r	8r
.	8r	8r	8r	8r	8r	.	.	.	8r	8r	8r	8a	8r
=81	=81	=81	=81	=81	=81	=81	=81	=81	=81	=81	=81	=81	=81
2r	8r	8r	4D	4D	4D	2r	2r	2r	2r	2r	2r	16dd	8r
.	.	.	.	.	.	.	.	.	.	.	.	32ee	.
.	.	.	.	.	.	.	.	.	.	.	.	32ff#	.
.	8f#	8d	.	.	.	.	.	.	.	.	.	32gg	8dd
.	.	.	.	.	.	.	.	.	.	.	.	32aa	.
.	.	.	.	.	.	.	.	.	.	.	.	32bb	.
.	.	.	.	.	.	.	.	.	.	.	.	32ccc#	.
.	8r	8r	4F#	4F#	4F#	.	.	.	.	.	.	8ddd	8r
.	8d	8f#	.	.	.	.	.	.	.	.	.	16dd	8a
.	.	.	.	.	.	.	.	.	.	.	.	16ddd	.
=82	=82	=82	=82	=82	=82	=82	=82	=82	=82	=82	=82	=82	=82
2r	8r	8r	4G	4G	4G	2r	2r	2r	2r	2r	2r	16ccc#	8r
.	.	.	.	.	.	.	.	.	.	.	.	16bb	.
.	8d	8g	.	.	.	.	.	.	.	.	.	16dd	8b
.	.	.	.	.	.	.	.	.	.	.	.	16ddd	.
.	8r	8r	4F#	4F#	4F#	.	.	.	.	.	.	16bb	8r
.	.	.	.	.	.	.	.	.	.	.	.	16aa	.
.	8d	8f#	.	.	.	.	.	.	.	.	.	16dd	8a
.	.	.	.	.	.	.	.	.	.	.	.	16ddd	.
=83	=83	=83	=83	=83	=83	=83	=83	=83	=83	=83	=83	=83	=83
2r	8r	8e	8E	8E	8E	2r	2r	2r	2r	2r	2r	16aa	8r
.	.	.	.	.	.	.	.	.	.	.	.	16gg	.
.	8A	8c#	8C#	8C#	8C#	.	.	.	.	.	.	16a	8g
.	.	.	.	.	.	.	.	.	.	.	.	16gg	.
.	8A	8d	8D	8D	8D	.	.	.	.	.	.	16gg	8f#
.	.	.	.	.	.	.	.	.	.	.	.	16ff#	.
.	8d	8B	8BB	8BB	8BB	.	.	.	.	.	.	16ee	8g#
.	.	.	.	.	.	.	.	.	.	.	.	16dd	.
=84	=84	=84	=84	=84	=84	=84	=84	=84	=84	=84	=84	=84	=84
2r	4c#	4A	4AA	4AA	4AA	2r	2r	2r	2r	2r	2r	16aa	4a
.	.	.	.	.	.	.	.	.	.	.	.	32bb	.
.	.	.	.	.	.	.	.	.	.	.	.	32ccc#	.
.	.	.	.	.	.	.	.	.	.	.	.	32ddd	.
.	.	.	.	.	.	.	.	.	.	.	.	32eee	.
.	.	.	.	.	.	.	.	.	.	.	.	32fff#	.
.	.	.	.	.	.	.	.	.	.	.	.	32ggg#	.
.	4r	4r	4r	4r	4r	.	.	.	.	.	.	8aaa	4r
.	.	.	.	.	.	.	.	.	.	.	.	8a	.
=85	=85	=85	=85	=85	=85	=85	=85	=85	=85	=85	=85	=85	=85
2r	8r	8r	4d	4d	4d	2r	2r	2r	2r	2r	2r	16dd	8r
.	.	.	.	.	.	.	.	.	.	.	.	32ee	.
.	.	.	.	.	.	.	.	.	.	.	.	32ff#	.
.	8f#	8d	.	.	.	.	.	.	.	.	.	32gg	8dd
.	.	.	.	.	.	.	.	.	.	.	.	32aa	.
.	.	.	.	.	.	.	.	.	.	.	.	32bb	.
.	.	.	.	.	.	.	.	.	.	.	.	32ccc#	.
.	8r	8r	4c#	4c#	4c#	.	.	.	.	.	.	16ddd	8r
.	.	.	.	.	.	.	.	.	.	.	.	16ddd	.
.	8f#	8c#	.	.	.	.	.	.	.	.	.	16ddd	8dd
.	.	.	.	.	.	.	.	.	.	.	.	16ddd	.
=86	=86	=86	=86	=86	=86	=86	=86	=86	=86	=86	=86	=86	=86
2r	8r	8r	4B	4B	4B	2r	2r	2r	2r	2r	2r	16ccc#	8r
.	.	.	.	.	.	.	.	.	.	.	.	16ddd	.
.	8f#	8B	.	.	.	.	.	.	.	.	.	16ddd	8dd
.	.	.	.	.	.	.	.	.	.	.	.	16fff#	.
.	8a	8F#	8F#	8F#	8F#	.	.	.	.	.	.	16fff#	8dd
.	.	.	.	.	.	.	.	.	.	.	.	16eee	.
.	8b	8G#	8G#	8G#	8G#	.	.	.	.	.	.	16eee	8dd
.	.	.	.	.	.	.	.	.	.	.	.	16ddd	.
=87	=87	=87	=87	=87	=87	=87	=87	=87	=87	=87	=87	=87	=87
2r	8e	8A	8A	8A	8A	2r	2r	2r	2r	2r	2r	16ccc#	8cc#
.	.	.	.	.	.	.	.	.	.	.	.	16aaa	.
.	16d	8d	8D	8D	8D	.	.	.	.	.	.	16fff#	16dd
.	16b	.	.	.	.	.	.	.	.	.	.	32eee	16b
.	.	.	.	.	.	.	.	.	.	.	.	32ddd	.
.	8a	8e	8E	8E	8E	.	.	.	.	.	.	8ccc#	8a
.	8g#	8e	8E	8E	8E	.	.	.	.	.	.	8bb	8g#
=88	=88	=88	=88	=88	=88	=88	=88	=88	=88	=88	=88	=88	=88
2r	4a	8A	8AA	8AA	8AA	2r	2r	2r	2r	2r	2r	4aa	4a
.	.	8a	8A	8A	8A	.	.	.	.	.	.	.	.
.	8r	8A	8AA	8AA	8AA	.	.	.	.	.	.	8r	8r
.	8r	8r	8r	8r	8r	.	.	.	.	.	.	8a	8r
=89	=89	=89	=89	=89	=89	=89	=89	=89	=89	=89	=89	=89	=89
2r	8r	8r	4F#	4F#	4F#	2r	2r	2r	2r	2r	2r	16a	8r
.	.	.	.	.	.	.	.	.	.	.	.	32b	.
.	.	.	.	.	.	.	.	.	.	.	.	32cc#	.
.	8c	8f#	.	.	.	.	.	.	.	.	.	32dd	8a
.	.	.	.	.	.	.	.	.	.	.	.	32ee	.
.	.	.	.	.	.	.	.	.	.	.	.	32ff#	.
.	.	.	.	.	.	.	.	.	.	.	.	32gg	.
.	8r	8r	4D#	4D#	4D#	.	.	.	.	.	.	8aa	8r
.	8B	8d#	.	.	.	.	.	.	.	.	.	16bb	8a
.	.	.	.	.	.	.	.	.	.	.	.	16ff#	.
=90	=90	=90	=90	=90	=90	=90	=90	=90	=90	=90	=90	=90	=90
2r	8B	8e	8E	8E	8E	2r	2r	2r	2r	2r	2r	16ff#	8g
.	.	.	.	.	.	.	.	.	.	.	.	16gg	.
.	8A	8f#	8F#	8F#	8F#	.	.	.	.	.	.	16bb	8d#
.	.	.	.	.	.	.	.	.	.	.	.	16dd#	.
.	8G	8g	8G	8G	8G	.	.	.	.	.	.	16dd#	8e
.	.	.	.	.	.	.	.	.	.	.	.	16ee	.
.	8B	8d#	8D#	8D#	8D#	.	.	.	.	.	.	16bb	8f#
.	.	.	.	.	.	.	.	.	.	.	.	16ff#	.
=91	=91	=91	=91	=91	=91	=91	=91	=91	=91	=91	=91	=91	=91
2r	8B	8e	8E	8E	8E	2r	2r	2r	2r	2r	2r	16ff#	8g
.	.	.	.	.	.	.	.	.	.	.	.	16gg	.
.	8A	8f#	8F#	8F#	8F#	.	.	.	.	.	.	16bb	8d#
.	.	.	.	.	.	.	.	.	.	.	.	16dd#	.
.	8G	8g	8G	8G	8G	.	.	.	.	.	.	16dd#	8e
.	.	.	.	.	.	.	.	.	.	.	.	16ee	.
.	8b	8g#	8G#	8G#	8G#	.	.	.	.	.	.	16bb	8b
.	.	.	.	.	.	.	.	.	.	.	.	16dd	.
=92	=92	=92	=92	=92	=92	=92	=92	=92	=92	=92	=92	=92	=92
2r	4f#	8a	8A	8A	8A	2r	2r	2r	2r	2r	2r	4dd	4f#
.	.	8A	8AA	8AA	8AA	.	.	.	.	.	.	.	.
.	8e	8A	8AA	8AA	8AA	.	.	.	.	.	.	8cc#	8e
.	8r	8r	8r	8r	8r	.	.	.	.	.	.	8A	8r
=93	=93	=93	=93	=93	=93	=93	=93	=93	=93	=93	=93	=93	=93
2r	8r	8r	4E	4E	4E	2r	2r	2r	2r	2r	2r	16g	8r
.	.	.	.	.	.	.	.	.	.	.	.	32a	.
.	.	.	.	.	.	.	.	.	.	.	.	32b	.
.	8B	8e	.	.	.	.	.	.	.	.	.	32cc#	8g
.	.	.	.	.	.	.	.	.	.	.	.	32dd	.
.	.	.	.	.	.	.	.	.	.	.	.	32ee	.
.	.	.	.	.	.	.	.	.	.	.	.	32ff#	.
.	8r	8B	8BB	8BB	8BB	.	.	.	.	.	.	8gg	8r
.	8e	8c#	8C#	8C#	8C#	.	.	.	.	.	.	8g	8g
=94	=94	=94	=94	=94	=94	=94	=94	=94	=94	=94	=94	=94	=94
2r	8A	8d	8D	8D	8D	2r	2r	2r	2r	2r	2r	32f#	8d
.	.	.	.	.	.	.	.	.	.	.	.	32a	.
.	.	.	.	.	.	.	.	.	.	.	.	32b	.
.	.	.	.	.	.	.	.	.	.	.	.	32cc#	.
.	8cc#	8e	8E	8E	8E	.	.	.	.	.	.	32dd	8gg
.	.	.	.	.	.	.	.	.	.	.	.	32ee	.
.	.	.	.	.	.	.	.	.	.	.	.	32ff#	.
.	.	.	.	.	.	.	.	.	.	.	.	32gg	.
.	8dd	8f#	8F#	8F#	8F#	.	.	.	.	.	.	32aa	8ff#
.	.	.	.	.	.	.	.	.	.	.	.	32gg	.
.	.	.	.	.	.	.	.	.	.	.	.	32ff#	.
.	.	.	.	.	.	.	.	.	.	.	.	32gg	.
.	8d	8f#	8F#	8F#	8F#	.	.	.	.	.	.	32aa	8a
.	.	.	.	.	.	.	.	.	.	.	.	32bb	.
.	.	.	.	.	.	.	.	.	.	.	.	32ccc#	.
.	.	.	.	.	.	.	.	.	.	.	.	32ddd	.
=95	=95	=95	=95	=95	=95	=95	=95	=95	=95	=95	=95	=95	=95
2r	8d	4g	4G	4G	4G	2r	2r	2r	2r	2r	2r	8bb	8b
.	16g	.	.	.	.	.	.	.	.	.	.	32aa	8ee
.	.	.	.	.	.	.	.	.	.	.	.	32gg	.
.	16ee	.	.	.	.	.	.	.	.	.	.	32ff#	.
.	.	.	.	.	.	.	.	.	.	.	.	32ee	.
.	8dd	8a	8A	8A	8A	.	.	.	.	.	.	4ee	8dd
.	8cc#	8A	8AA	8AA	8AA	.	.	.	.	.	.	.	8cc#
=96	=96	=96	=96	=96	=96	=96	=96	=96	=96	=96	=96	=96	=96
4.r	4dd	8d	8D	8D	8D	4.r	2r	2r	2r	4.r	4.r	4dd	4dd
.	.	8D	8DD	8DD	8DD	.	.	.	.	.	.	.	.
.	8r	8D	8DD	8DD	8DD	.	.	.	.	.	.	8r	8r
8a	8r	8r	8r	8r	8r	8a	.	.	.	8r	8r	8a	8a
=97	=97	=97	=97	=97	=97	=97	=97	=97	=97	=97	=97	=97	=97
8dd	[2d	4D	4D	4D	4D	8dd	4f#	2ee	[2c	[2cc	2g	8dd	8dd
4dd	.	.	.	.	.	4dd	.	.	.	.	.	4dd	4dd
.	.	4F#	4F#	4F#	4F#	.	[4d	.	.	.	.	.	.
16.ff#	.	.	.	.	.	16.ff#	.	.	.	.	.	16.ff#	16.ff#
32dd	.	.	.	.	.	32dd	.	.	.	.	.	32dd	32dd
=98	=98	=98	=98	=98	=98	=98	=98	=98	=98	=98	=98	=98	=98
8b	2d]	4G	4G	4G	4G	8b	4d]	2cc	2c]	2cc]	2c	8b	8b
4bb	.	.	.	.	.	4b	.	.	.	.	.	4b	4b
.	.	4F#	4F#	4F#	4F#	.	4d	.	.	.	.	.	.
8aa	.	.	.	.	.	8a	.	.	.	.	.	8a	8a
=99	=99	=99	=99	=99	=99	=99	=99	=99	=99	=99	=99	=99	=99
8gg	[2A	4E	4C#	4C#	4C#	4g	4e	4ff	[2g	4dd	[2G	8g	8g
16ff#	.	.	.	.	.	.	.	.	.	.	.	16f#	16f#
16ee	.	.	.	.	.	.	.	.	.	.	.	16e	16e
8ff#	.	4D	4D	4D	4D	4f#	4d	4ee	.	4cc	.	8f#	8f#
16ee	.	.	.	.	.	.	.	.	.	.	.	16e	16e
16dd	.	.	.	.	.	.	.	.	.	.	.	16d	16d
=100	=100	=100	=100	=100	=100	=100	=100	=100	=100	=100	=100	=100	=100
8aa	8A]	8A	8AA	8AA	8AA	4e	4c#	4dd	4g]	4gg	4G]	8a	8a
16.aa	16.a	8a	8A	8A	8A	.	.	.	.	.	.	16.a	16.a
32aa	32a	.	.	.	.	.	.	.	.	.	.	32a	32a
8aa	8a	8A	8AA	8AA	8AA	4r	4r	4r	4r	4r	4r	8a	8a
8a	8r	8r	8r	8r	8r	.	.	.	.	.	.	8a	8a
=101	=101	=101	=101	=101	=101	=101	=101	=101	=101	=101	=101	=101	=101
8dd	[2f#	2A	4d	4d	4d	[2dd	[2f#	2ee	[2c	[2cc	[2c	8dd	8dd
4dd	.	.	.	.	.	.	.	.	.	.	.	4dd	4dd
.	.	.	4c#	4c#	4c#	.	.	.	.	.	.	.	.
16.ff#	.	.	.	.	.	.	.	.	.	.	.	16.ff#	16.ff#
32ee	.	.	.	.	.	.	.	.	.	.	.	32ee	32ee
=102	=102	=102	=102	=102	=102	=102	=102	=102	=102	=102	=102	=102	=102
8dd	8.f#]	4B	4B	4B	4B	8dd]	4f#]	4.ee	4c]	4.cc]	4c]	8dd	8dd
4ddd	.	.	.	.	.	4dd	.	.	.	.	.	4dd	4dd
.	16g#	.	.	.	.	.	.	.	.	.	.	.	.
.	8a	8F#	8F#	8F#	8F#	.	8a	.	4r	.	4r	.	.
16.eee	8b	8G#	8G#	8G#	8G#	16.ee	8b	8dd	.	8dd	.	16.ee	16.ee
32bb	.	.	.	.	.	32b	.	.	.	.	.	32b	32b
=103	=103	=103	=103	=103	=103	=103	=103	=103	=103	=103	=103	=103	=103
8ccc#	8e	8A	8A	8A	8A	8cc#	8e	8dd	8r	8dd	8r	8cc#	8cc#
16.ddd	16.f#	8d	8D	8D	8D	8dd	8b	16.ee	8cc	8ee	8cc	16.dd	16.dd
32bb	32d	.	.	.	.	.	.	32aa	.	.	.	32b	32b
8aa	8c#	8e	8E	8E	8E	8cc#	8a	8gg	8dd	8dd	8dd	8a	8a
16.bb	16.d	8e	8E	8E	8E	8b	8g#	8ff#	8dd	8dd	8dd	16.b	16.b
32gg#	32B	.	.	.	.	.	.	.	.	.	.	32g#	32g#
=104	=104	=104	=104	=104	=104	=104	=104	=104	=104	=104	=104	=104	=104
8aa	8A	8A	8AA	8AA	8AA	8a	8a	4gg	4g	4dd	4g	8a	8a
16.a	16.A	8a	8A	8A	8A	4r	4r	.	.	.	.	16.A	16.A
32a	32A	.	.	.	.	.	.	.	.	.	.	32A	32A
8a	8A	8A	8AA	8AA	8AA	.	.	8r	4r	4r	4r	8A	8A
8a	8r	8r	8r	8r	8r	8r	8r	8r	.	.	.	8a	8a
=105	=105	=105	=105	=105	=105	=105	=105	=105	=105	=105	=105	=105	=105
8aa	8r	2f#	4F#	4F#	4F#	2r	2r	2gg	2r	2ee	2r	8aa	8aa
4aa	8c	.	.	.	.	.	.	.	.	.	.	4aa	4aa
.	[4B	.	4D#	4D#	4D#	.	.	.	.	.	.	.	.
16.bb	.	.	.	.	.	.	.	.	.	.	.	16.bb	16.bb
32ff#	.	.	.	.	.	.	.	.	.	.	.	32ff#	32ff#
=106	=106	=106	=106	=106	=106	=106	=106	=106	=106	=106	=106	=106	=106
8gg	2B_	8e	8E	8E	8E	2r	2r	4ff	2r	4dd	2r	8gg	8gg
8dd#	.	8A	8F#	8F#	8F#	.	.	.	.	.	.	8dd#	8dd#
8ee	.	8G	8G	8G	8G	.	.	4r	.	4r	.	8ee	8ee
16ff#	.	8d#	8D#	8D#	8D#	.	.	.	.	.	.	16ff#	16ff#
32ee	.	.	.	.	.	.	.	.	.	.	.	32ee	32ee
32ff#	.	.	.	.	.	.	.	.	.	.	.	32ff#	32ff#
=107	=107	=107	=107	=107	=107	=107	=107	=107	=107	=107	=107	=107	=107
8gg	8B]	8e	8E	8E	8E	2r	2r	2r	2r	2r	2r	8gg	8gg
8aa	8A	8f#	8F#	8F#	8F#	.	.	.	.	.	.	8aa	8aa
8bb	8G	8g	8G	8G	8G	.	.	.	.	.	.	8bb	8bb
8eee	8b	8g#	8G#	8G#	8G#	.	.	.	.	.	.	16.b	16.b
.	.	.	.	.	.	.	.	.	.	.	.	32ee	32ee
=108	=108	=108	=108	=108	=108	=108	=108	=108	=108	=108	=108	=108	=108
4ddd	4f#	8a	8A	8A	8A	2r	2r	2r	2r	2r	2r	4dd	4dd
.	.	8A	8AA	8AA	8AA	.	.	.	.	.	.	.	.
8ccc#	8e	8A	8AA	8AA	8AA	.	.	.	.	.	.	8cc#	8cc#
8a	8r	8r	8r	8r	8r	.	.	.	.	.	.	8a	8a
=109	=109	=109	=109	=109	=109	=109	=109	=109	=109	=109	=109	=109	=109
8gg	2c#	2e	4AA	4AA	4AA	2ee	2cc#	[2gg	[2g	2dd	2G	8gg	8gg
4gg	.	.	.	.	.	.	.	.	.	.	.	4gg	4gg
.	.	.	4A	4A	4A	.	.	.	.	.	.	.	.
16.aa	.	.	.	.	.	.	.	.	.	.	.	16.aa	16.aa
32ee	.	.	.	.	.	.	.	.	.	.	.	32ee	32ee
=110	=110	=110	=110	=110	=110	=110	=110	=110	=110	=110	=110	=110	=110
8ff#	8d	8d	8D	8D	8D	8ff#	8dd	8gg]	8g]	8cc	4c	8ff#	8ff#
16ccc#	8g	8e	8E	8E	8E	8cc#	8g	8bb	8f	8ff	.	16cc#	16cc#
32bb	.	.	.	.	.	.	.	.	.	.	.	32b	32b
32ccc#	.	.	.	.	.	.	.	.	.	.	.	32cc#	32cc#
8ddd	8a	8f#	8F#	8F#	8F#	8dd	8f#	8ccc	8e	8gg	4r	8dd	8dd
8aa	8d	8f#	8F#	8F#	8F#	8a	8a	8gg	8cc	8ee	.	8a	8a
=111	=111	=111	=111	=111	=111	=111	=111	=111	=111	=111	=111	=111	=111
8bb	8d	4g	4G	4G	4G	8b	8b	8.aa	4cc	8.ff	4f	8b	8b
16.gg	16.b	.	.	.	.	16.gg	16.b	.	.	.	.	16.gg	16.gg
.	.	.	.	.	.	.	.	16ff	.	16dd	.	.	.
32ee	32g	.	.	.	.	32ee	32g	.	.	.	.	32ee	32ee
8dd	8f#	8a	8A	8A	8A	8dd	8f#	8ee	8g	8cc	8g	8dd	8dd
16.ee	16.g	8A	8AA	8AA	8AA	16.ee	16.g	8dd	8g	8dd	8g	16.ee	16.ee
32cc#	32e	.	.	.	.	32cc#	32e	.	.	.	.	32cc#	32cc#
=112	=112	=112	=112	=112	=112	=112	=112	=112	=112	=112	=112	=112	=112
8dd	8f#	8d	8D	8D	8D	4dd	4f#	4cc	4e	4cc	4c	8dd	8dd
16.d	16.d	8D	8DD	8DD	8DD	.	.	.	.	.	.	16.d	16.d
32d	32d	.	.	.	.	.	.	.	.	.	.	32d	32d
8d	8d	8D	8DD	8DD	8DD	8r	8r	4r	4r	8r	8r	8d	8d
8r	8r	8r	8A	8r	8r	8r	8r	.	.	8r	8r	8r	8r
=113	=113	=113	=113	=113	=113	=113	=113	=113	=113	=113	=113	=113	=113
2r	8r	8r	8.d	8DD	2r	2r	2r	2r	2r	2r	2r	8r	8r
.	8d	8F#	.	8r	.	.	.	.	.	.	.	8d	8d
.	.	.	32f#	.	.	.	.	.	.	.	.	.	.
.	.	.	32e	.	.	.	.	.	.	.	.	.	.
.	8r	8r	8d	8FF#	.	.	.	.	.	.	.	8r	8r
.	8A	8F#	8A	8r	.	.	.	.	.	.	.	8d	8d
=114	=114	=114	=114	=114	=114	=114	=114	=114	=114	=114	=114	=114	=114
2r	8r	8r	24B	8GG	2r	2r	2r	2r	2r	2r	2r	8r	8r
.	.	.	24c#	.	.	.	.	.	.	.	.	.	.
.	.	.	24d	.	.	.	.	.	.	.	.	.	.
.	8B	8G	24e	8r	.	.	.	.	.	.	.	8d	8d
.	.	.	24f#	.	.	.	.	.	.	.	.	.	.
.	.	.	24g	.	.	.	.	.	.	.	.	.	.
.	8r	8r	8a	8FF#	.	.	.	.	.	.	.	8r	8r
.	8A	8F#	16A	8r	.	.	.	.	.	.	.	8d	8d
.	.	.	16a	.	.	.	.	.	.	.	.	.	.
=115	=115	=115	=115	=115	=115	=115	=115	=115	=115	=115	=115	=115	=115
2r	8r	8r	16a	8EE	2r	2r	2r	2r	2r	2r	2r	8r	8r
.	.	.	16g	.	.	.	.	.	.	.	.	.	.
.	8A	8C#	16AA	8C#	.	.	.	.	.	.	.	8e	8e
.	.	.	16g	.	.	.	.	.	.	.	.	.	.
.	8r	8r	16g	8D	.	.	.	.	.	.	.	8r	8r
.	.	.	16f#	.	.	.	.	.	.	.	.	.	.
.	16A	8D	16D	8DD	.	.	.	.	.	.	.	8f#	8f#
.	16d	.	16f#	.	.	.	.	.	.	.	.	.	.
=116	=116	=116	=116	=116	=116	=116	=116	=116	=116	=116	=116	=116	=116
2r	4d	8A	4f#	8AA	2r	2r	2r	2r	2r	2r	2r	4f#	4f#
.	.	8A	.	8AA	.	.	.	.	.	.	.	.	.
.	8c#	8A	8e	8AA	.	.	.	.	.	.	.	8e	8e
.	8r	8r	8A	8r	.	.	.	.	.	.	.	8r	8r
=117	=117	=117	=117	=117	=117	=117	=117	=117	=117	=117	=117	=117	=117
2r	8r	8r	8.d	8D	2r	2r	2r	2r	2r	2r	2r	8r	8r
.	8d	8d	.	8r	.	.	.	.	.	.	.	8f#	8f#
.	.	.	32f#	.	.	.	.	.	.	.	.	.	.
.	.	.	32e	.	.	.	.	.	.	.	.	.	.
.	8r	8r	8d	8C#	.	.	.	.	.	.	.	8r	8r
.	8d	8c#	8d	8r	.	.	.	.	.	.	.	8f#	8f#
=118	=118	=118	=118	=118	=118	=118	=118	=118	=118	=118	=118	=118	=118
2r	8r	8r	8.d	8BB	2r	2r	2r	2r	2r	2r	2r	8r	8r
.	8d	8B	.	8r	.	.	.	.	.	.	.	8f#	8f#
.	.	.	32f#	.	.	.	.	.	.	.	.	.	.
.	.	.	32e	.	.	.	.	.	.	.	.	.	.
.	8r	8F#	24d	8FF#	.	.	.	.	.	.	.	8r	8r
.	.	.	24f#	.	.	.	.	.	.	.	.	.	.
.	.	.	24e	.	.	.	.	.	.	.	.	.	.
.	8d	8G#	24f#	8GG#	.	.	.	.	.	.	.	8e	8e
.	.	.	24e	.	.	.	.	.	.	.	.	.	.
.	.	.	24d	.	.	.	.	.	.	.	.	.	.
=119	=119	=119	=119	=119	=119	=119	=119	=119	=119	=119	=119	=119	=119
2r	8c#	8A	24c#	8AA	2r	2r	2r	2r	2r	2r	2r	8e	8e
.	.	.	24d	.	.	.	.	.	.	.	.	.	.
.	.	.	24e	.	.	.	.	.	.	.	.	.	.
.	8B	8D	24d	8DD	.	.	.	.	.	.	.	8d	8d
.	.	.	24c#	.	.	.	.	.	.	.	.	.	.
.	.	.	24B	.	.	.	.	.	.	.	.	.	.
.	8A	8E	8A	8EE	.	.	.	.	.	.	.	8c#	8c#
.	8G#	8E	8B	8EE	.	.	.	.	.	.	.	8B	8B
=120	=120	=120	=120	=120	=120	=120	=120	=120	=120	=120	=120	=120	=120
2r	4A	4E	4A	8AA	2r	2r	2r	2r	2r	2r	2r	4A	4A
.	.	.	.	8A	.	.	.	.	.	.	.	.	.
.	8r	8r	8r	8AA	.	.	.	.	.	.	.	8r	8r
.	8r	8r	8A	8r	.	.	.	.	.	.	.	8r	8r
=121	=121	=121	=121	=121	=121	=121	=121	=121	=121	=121	=121	=121	=121
2r	8r	8r	8.a	8FF#	2r	2r	2r	2r	2r	2r	2r	8r	8r
.	8c	8F#	.	8r	.	.	.	.	.	.	.	8a	8a
.	.	.	32f#	.	.	.	.	.	.	.	.	.	.
.	.	.	32g	.	.	.	.	.	.	.	.	.	.
.	8r	8r	8a	8DD#	.	.	.	.	.	.	.	8r	8r
.	8B	8D#	8b	8r	.	.	.	.	.	.	.	8f#	8f#
=122	=122	=122	=122	=122	=122	=122	=122	=122	=122	=122	=122	=122	=122
2r	16B	8E	8.g	8EE	2r	2r	2r	2r	2r	2r	2r	16e	16e
.	16B	.	.	.	.	.	.	.	.	.	.	16B	16B
.	16B	8F#	.	8FF#	.	.	.	.	.	.	.	16B	16B
.	16B	.	16f#	.	.	.	.	.	.	.	.	16B	16B
.	16B	8G	8e	8GG	.	.	.	.	.	.	.	16B	16B
.	16B	.	.	.	.	.	.	.	.	.	.	16B	16B
.	16B	8D#	24f#	8DD#	.	.	.	.	.	.	.	16B	16B
.	.	.	24g	.	.	.	.	.	.	.	.	.	.
.	16B	.	.	.	.	.	.	.	.	.	.	16B	16B
.	.	.	24a	.	.	.	.	.	.	.	.	.	.
=123	=123	=123	=123	=123	=123	=123	=123	=123	=123	=123	=123	=123	=123
2r	16B	8E	8.g	8EE	2r	2r	2r	2r	2r	2r	2r	16B	16B
.	16B	.	.	.	.	.	.	.	.	.	.	16B	16B
.	16B	8F#	.	8FF#	.	.	.	.	.	.	.	16B	16B
.	16B	.	16f#	.	.	.	.	.	.	.	.	16B	16B
.	16B	8G	8.e	8GG	.	.	.	.	.	.	.	16B	16B
.	16B	.	.	.	.	.	.	.	.	.	.	16B	16B
.	16B	8G#	.	8GG#	.	.	.	.	.	.	.	16B	16B
.	16d	.	16d	.	.	.	.	.	.	.	.	16d	16d
=124	=124	=124	=124	=124	=124	=124	=124	=124	=124	=124	=124	=124	=124
2r	4d	8A	4d	8AA	2r	2r	2r	2r	2r	2r	2r	4d	4d
.	.	8A	.	8AA	.	.	.	.	.	.	.	.	.
.	8c#	8A	16c#	8AA	.	.	.	.	.	.	.	8c#	8c#
.	.	.	32A	.	.	.	.	.	.	.	.	.	.
.	.	.	32B	.	.	.	.	.	.	.	.	.	.
.	8r	8r	32c#	8r	.	.	.	.	.	.	.	8r	8r
.	.	.	32d	.	.	.	.	.	.	.	.	.	.
.	.	.	32e	.	.	.	.	.	.	.	.	.	.
.	.	.	32f#	.	.	.	.	.	.	.	.	.	.
=125	=125	=125	=125	=125	=125	=125	=125	=125	=125	=125	=125	=125	=125
2r	8r	8r	8.g	4EE	2r	2r	2r	2r	2r	2r	2r	8r	8r
.	8B	8E	.	.	.	.	.	.	.	.	.	8g	8g
.	.	.	32e	.	.	.	.	.	.	.	.	.	.
.	.	.	32f#	.	.	.	.	.	.	.	.	.	.
.	8r	8r	8.g	8BB	.	.	.	.	.	.	.	8r	8r
.	8A	8E	.	8C#	.	.	.	.	.	.	.	8g	8g
.	.	.	16a	.	.	.	.	.	.	.	.	.	.
=126	=126	=126	=126	=126	=126	=126	=126	=126	=126	=126	=126	=126	=126
2r	8r	8r	8.f#	8D	2r	2r	2r	2r	2r	2r	2r	8r	8r
.	8A	8D	.	16DD	.	.	.	.	.	.	.	8f#	8f#
.	.	.	16e	16EE	.	.	.	.	.	.	.	.	.
.	8r	8r	8d	8FF#	.	.	.	.	.	.	.	8r	8r
.	8A	8F#	8A	8FF#	.	.	.	.	.	.	.	[8d	[8d
=127	=127	=127	=127	=127	=127	=127	=127	=127	=127	=127	=127	=127	=127
2r	8B	8G	24B	4GG	2r	2r	2r	2r	2r	2r	2r	8d]	8d]
.	.	.	24c#	.	.	.	.	.	.	.	.	.	.
.	.	.	24d	.	.	.	.	.	.	.	.	.	.
.	8e	8G	24e	.	.	.	.	.	.	.	.	8g	8g
.	.	.	24f#	.	.	.	.	.	.	.	.	.	.
.	.	.	24g	.	.	.	.	.	.	.	.	.	.
.	8d	8A	16f#	8AA	.	.	.	.	.	.	.	8f#	8f#
.	.	.	16d	.	.	.	.	.	.	.	.	.	.
.	8c#	8A	16AA	8AA	.	.	.	.	.	.	.	8e	8e
.	.	.	16c#	.	.	.	.	.	.	.	.	.	.
=128	=128	=128	=128	=128	=128	=128	=128	=128	=128	=128	=128	=128	=128
2r	4d	4D	16D	4DD	2r	2r	2r	2r	2r	2r	2r	4d	4d
.	.	.	32E	.	.	.	.	.	.	.	.	.	.
.	.	.	32F#	.	.	.	.	.	.	.	.	.	.
.	.	.	32G	.	.	.	.	.	.	.	.	.	.
.	.	.	32A	.	.	.	.	.	.	.	.	.	.
.	.	.	32B	.	.	.	.	.	.	.	.	.	.
.	.	.	32c#	.	.	.	.	.	.	.	.	.	.
.	8r	8r	8d	8r	.	.	.	.	.	.	.	8r	8r
.	8r	8r	8r	8r	.	.	.	.	.	.	.	8r	8r
=129	=129	=129	=129	=129	=129	=129	=129	=129	=129	=129	=129	=129	=129
2r	4d	4D	16D	4DD	2r	2r	2r	2r	2r	2r	2r	4d	4d
.	.	.	32E	.	.	.	.	.	.	.	.	.	.
.	.	.	32F#	.	.	.	.	.	.	.	.	.	.
.	.	.	32G	.	.	.	.	.	.	.	.	.	.
.	.	.	32A	.	.	.	.	.	.	.	.	.	.
.	.	.	32B	.	.	.	.	.	.	.	.	.	.
.	.	.	32c#	.	.	.	.	.	.	.	.	.	.
.	4r	4r	8d	4r	.	.	.	.	.	.	.	8r	8r
.	.	.	8r	.	.	.	.	.	.	.	.	8a	8a
=130	=130	=130	=130	=130	=130	=130	=130	=130	=130	=130	=130	=130	=130
2r	8r	8r	8r	8r	8r	2r	2r	2r	2r	2r	2r	8dd	8dd
.	8A	8f	8F	8F	8F	.	.	.	.	.	.	4dd	4dd
.	8A	8f	8F	8F	8F	.	.	.	.	.	.	.	.
.	8A	8f	8F	8F	8F	.	.	.	.	.	.	8ff	8ff
=131	=131	=131	=131	=131	=131	=131	=131	=131	=131	=131	=131	=131	=131
2r	8r	8r	8r	8r	8r	2r	2r	2r	2r	2r	2r	16ff	16ff
.	.	.	.	.	.	.	.	.	.	.	.	16ee	16ee
.	8B-	8g	8G	8G	8G	.	.	.	.	.	.	4ee	4ee
.	8B-	8g	8G	8G	8G	.	.	.	.	.	.	.	.
.	8B-	8g	8G	8G	8G	.	.	.	.	.	.	8gg	8gg
=132	=132	=132	=132	=132	=132	=132	=132	=132	=132	=132	=132	=132	=132
2r	8r	8r	8r	8r	8r	2r	2r	2r	2r	2r	2r	16gg	16gg
.	.	.	.	.	.	.	.	.	.	.	.	16ff#	16ff#
.	8c	8a	8A	8A	8A	.	.	.	.	.	.	4ff#	4ff#
.	8c	8a	8A	8A	8A	.	.	.	.	.	.	.	.
.	8c	8a	8A	8A	8A	.	.	.	.	.	.	8aa	8aa
=133	=133	=133	=133	=133	=133	=133	=133	=133	=133	=133	=133	=133	=133
2r	8r	8r	8r	8r	8r	2r	2r	2r	2r	2r	2r	16aa	16aa
.	.	.	.	.	.	.	.	.	.	.	.	16gg	16gg
.	8d	8b-	8B-	8B-	8B-	.	.	.	.	.	.	4gg	4gg
.	8d	8b-	8B-	8B-	8B-	.	.	.	.	.	.	.	.
.	8d	8f#	8F#	8F#	8F#	.	.	.	.	.	.	8aa	8aa
=134	=134	=134	=134	=134	=134	=134	=134	=134	=134	=134	=134	=134	=134
2r	8r	8r	8r	8r	8r	2r	2r	2r	2r	2r	2r	16aa	16aa
.	.	.	.	.	.	.	.	.	.	.	.	16bb-	16bb-
.	8d	8g	8G	8G	8G	.	.	.	.	.	.	4bb-	4bb-
.	8d	8G	8G	8G	8G	.	.	.	.	.	.	.	.
.	8B	8G#	8G#	8G#	8G#	.	.	.	.	.	.	8dd	8dd
=135	=135	=135	=135	=135	=135	=135	=135	=135	=135	=135	=135	=135	=135
2r	8A	8A	8A	8A	8A	2r	2r	2r	2r	2r	2r	8cc#	8cc#
.	16.A	16.A	16.AA	16.AA	16.AA	.	.	.	.	.	.	16.a	16.a
.	32A	32A	32AA	32AA	32AA	.	.	.	.	.	.	32a	32a
.	8A	8A	8AA	8AA	8AA	.	.	.	.	.	.	8a	8a
.	8A	8A	8AA	8AA	8AA	.	.	.	.	.	.	8a	8a
=136	=136	=136	=136	=136	=136	=136	=136	=136	=136	=136	=136	=136	=136
2r	4A	4A	4AA	4AA	4AA	2r	2r	2r	2r	2r	2r	4a	4a
.	4r	4r	4r	4r	4r	.	.	.	.	.	.	4r	4r
==	==	==	==	==	==	==	==	==	==	==	==	==	==
*-	*-	*-	*-	*-	*-	*-	*-	*-	*-	*-	*-	*-	*-
!!!RWG1: This file contains only pitch and duration data.
!!!RWG2: Transposing instruments are not transposed.
!!!RWG3: Spines may have incompatible meters.
!!!RWG4: Durations of rests and tied notes may be interpreted.
!!!RWG: Key is interpreted using the Humdrum key tool.
!!!OPT: Hornsignal 
!!!AFT: stage1 
!!!END: 2000/12/13
!!format changes:
!!content changes:
!!public access: complete
!!!KEY: 17885531
!!!EMD: Converted from MuseData to Humdrum Dec 16, 2000, by Andreas Kornstaedt using muse2kern.
